;Generated by Cura LulzBot Edition GCodeWriter Version: 3.2.32
;FLAVOR:Marlin
;TIME:22494
;Filament used: 11.0784m
;Layer height: 0.22
;Generated with Cura_SteamEngine 3.2.32
M82 ;absolute extrusion mode
;This G-Code has been generated specifically for the LulzBot TAZ 5 with standard extruder
M75			 ; start GLCD timer
M140 S110    ; start bed heating up
G21                      ; set units to Millimetres
G90                      ; absolute positioning
M107                     ; disable fans
M82                      ; set extruder to absolute mode
G28 X0 Y0                ; home X and Y
G28 Z0                   ; home Z
G1 Z15.0 F175 ; move extruder up
M117 Heating...                     ; progress indicator message on LCD
M109 R240  ; wait for extruder to reach printing temp
M190 S110    ; wait for bed to reach printing temp
G92 E0                   ; set extruder position to 0
G1 F200 E0               ; prime the nozzle with filament
G92 E0                   ; re-set extruder position to 0
G1 F175       ; set travel speed
M203 X192 Y208 Z3        ; set limits on travel speed
M117 TAZ 5 Printing...   ; progress indicator message on LCD

M221 S100
;LAYER_COUNT:104
;LAYER:0
M107
G0 F2625 X55.53 Y97.616 Z0.424
;TYPE:SKIRT
G1 F900 X56 Y97.42 E0.01692
G1 X56.495 Y97.301 E0.03384
G1 X56.874 Y97.263 E0.0465
G1 X60.178 Y97.127 E0.15639
G1 X65.655 Y96.656 E0.33907
G1 X71.067 Y95.88 E0.52077
G1 X76.429 Y94.799 E0.70254
G1 X79.076 Y94.147 E0.79313
G1 X84.337 Y92.612 E0.97526
G1 X89.512 Y90.78 E1.15769
G1 X94.555 Y88.665 E1.33942
G1 X99.465 Y86.271 E1.52095
G1 X104.239 Y83.6 E1.70275
G1 X108.862 Y80.658 E1.88485
G1 X113.312 Y77.46 E2.06696
G1 X117.55 Y74.032 E2.2481
G1 X121.636 Y70.329 E2.43135
G1 X123.539 Y68.451 E2.5202
G1 X127.286 Y64.425 E2.70297
G1 X130.79 Y60.206 E2.88523
G1 X134.032 Y55.817 E3.06656
G1 X137.048 Y51.213 E3.24947
G1 X139.16 Y47.629 E3.38771
G1 X139.452 Y47.212 E3.40463
G1 X139.806 Y46.845 E3.42157
G1 X140.213 Y46.538 E3.43852
G1 X140.663 Y46.299 E3.45545
G1 X141.145 Y46.133 E3.47239
G1 X141.646 Y46.044 E3.4893
G1 X141.96 Y46.029 E3.49975
G1 X178.944 Y46.029 E4.7288
G1 X179.452 Y46.069 E4.74573
G1 X179.947 Y46.188 E4.76265
G1 X180.418 Y46.383 E4.77959
G1 X180.853 Y46.649 E4.79654
G1 X181.24 Y46.979 E4.81344
G1 X181.572 Y47.366 E4.83038
G1 X181.838 Y47.801 E4.84733
G1 X182.034 Y48.271 E4.86425
G1 X182.111 Y48.55 E4.87387
G1 X183.396 Y54.133 E5.06425
G1 X184.124 Y56.769 E5.15513
G1 X185.805 Y61.984 E5.33722
G1 X187.775 Y67.09 E5.51909
G1 X190.032 Y72.073 E5.70088
G1 X192.568 Y76.928 E5.88291
G1 X195.376 Y81.633 E6.06499
G1 X198.438 Y86.159 E6.24659
G1 X201.76 Y90.517 E6.42869
G1 X205.313 Y94.667 E6.61024
G1 X209.093 Y98.611 E6.79179
G1 X213.138 Y102.378 E6.97547
G1 X215.187 Y104.131 E7.06509
G1 X217.302 Y105.836 E7.15537
G1 X221.717 Y109.101 E7.33785
G1 X226.28 Y112.091 E7.51914
G1 X231.057 Y114.849 E7.70245
G1 X234.487 Y116.621 E7.83075
G1 X234.92 Y116.889 E7.84767
G1 X235.305 Y117.222 E7.86458
G1 X235.634 Y117.611 E7.88152
G1 X235.898 Y118.047 E7.89845
G1 X236.091 Y118.519 E7.9154
G1 X236.207 Y119.015 E7.93233
G1 X236.245 Y119.508 E7.94876
G1 X236.244 Y156.495 E9.17791
G1 X236.204 Y157.003 E9.19485
G1 X236.085 Y157.498 E9.21176
G1 X235.89 Y157.969 E9.2287
G1 X235.624 Y158.404 E9.24565
G1 X235.294 Y158.791 E9.26255
G1 X234.907 Y159.123 E9.2795
G1 X234.46 Y159.396 E9.2969
G1 X232.013 Y160.633 E9.38802
G1 X227.233 Y163.307 E9.57003
G1 X222.61 Y166.25 E9.75216
G1 X218.161 Y169.448 E9.93424
G1 X213.923 Y172.875 E10.11536
G1 X209.837 Y176.58 E10.29866
G1 X207.934 Y178.456 E10.38746
G1 X204.18 Y182.491 E10.57061
G1 X200.69 Y186.693 E10.75213
G1 X197.442 Y191.091 E10.93382
G1 X194.434 Y195.684 E11.11628
G1 X191.709 Y200.408 E11.29751
G1 X189.237 Y205.316 E11.48013
G1 X187.07 Y210.299 E11.66071
G1 X185.169 Y215.451 E11.8432
G1 X183.567 Y220.686 E12.02514
G1 X182.154 Y226.491 E12.22368
G1 X181.995 Y226.975 E12.24061
G1 X181.762 Y227.428 E12.25754
G1 X181.462 Y227.839 E12.27445
G1 X181.1 Y228.199 E12.29142
G1 X180.687 Y228.497 E12.30834
G1 X180.233 Y228.727 E12.32525
G1 X179.748 Y228.884 E12.34219
G1 X178.996 Y228.972 E12.36736
G1 X142.012 Y228.971 E13.59641
G1 X141.504 Y228.931 E13.61334
G1 X141.009 Y228.812 E13.63026
G1 X140.538 Y228.617 E13.6472
G1 X140.103 Y228.351 E13.66414
G1 X139.716 Y228.021 E13.68105
G1 X139.255 Y227.442 E13.70564
G1 X135.412 Y221.288 E13.94675
G1 X132.227 Y216.853 E14.1282
G1 X128.777 Y212.58 E14.31071
G1 X125.12 Y208.539 E14.49183
G1 X121.22 Y204.695 E14.67381
G1 X117.094 Y201.061 E14.85652
G1 X114.998 Y199.369 E14.94604
G1 X110.581 Y196.102 E15.12861
G1 X106.006 Y193.101 E15.31044
G1 X101.276 Y190.368 E15.49198
G1 X96.378 Y187.898 E15.67427
G1 X91.345 Y185.706 E15.8567
G1 X88.787 Y184.717 E15.94784
G1 X86.254 Y183.823 E16.03711
G1 X81.005 Y182.214 E16.21956
G1 X75.671 Y180.902 E16.4021
G1 X72.96 Y180.355 E16.49401
G1 X70.332 Y179.905 E16.58261
G1 X64.896 Y179.207 E16.76474
G1 X59.38 Y178.813 E16.94852
G1 X56.898 Y178.731 E17.03104
G1 X56.392 Y178.675 E17.04796
G1 X55.901 Y178.54 E17.06489
G1 X55.437 Y178.329 E17.08182
G1 X55.011 Y178.049 E17.09877
G1 X54.634 Y177.706 E17.1157
G1 X54.316 Y177.308 E17.13263
G1 X54.064 Y176.866 E17.14954
G1 X53.884 Y176.389 E17.16648
G1 X53.781 Y175.89 E17.18342
G1 X53.755 Y175.483 E17.19697
G1 X53.758 Y100.51 E19.68847
G1 X53.798 Y100.002 E19.7054
G1 X53.917 Y99.506 E19.72236
G1 X54.112 Y99.036 E19.73927
G1 X54.378 Y98.601 E19.75621
G1 X54.708 Y98.213 E19.77314
G1 X55.095 Y97.882 E19.79006
G1 X55.53 Y97.616 E19.807
G1 F600 E18.807
G0 F2625 X57.76 Y99.836
G0 X57.76 Y101.265
G0 X119.218 Y134.765
G0 X142.784 Y134.765
G0 X155.634 Y106.681
G0 X155.704 Y106.751
;TYPE:WALL-INNER
G1 F600 E19.807
G1 F900 X155.704 Y108.299 E19.85845
G1 X165.204 Y108.299 E20.17415
G1 X165.204 Y106.751 E20.22559
G1 X155.704 Y106.751 E20.5413
G0 F2625 X155.634 Y106.681
G0 X157.232 Y105.279
G0 X163.634 Y85.449
G0 X163.704 Y85.519
G1 F900 X163.704 Y105.251 E21.19703
G1 X177.256 Y105.251 E21.64739
G1 X177.256 Y134.737 E22.62727
G1 X200.756 Y134.737 E23.40822
G1 X200.756 Y120.251 E23.88962
G1 X232.254 Y120.251 E24.93636
G1 X232.254 Y155.751 E26.1161
G1 X200.756 Y155.751 E27.16284
G1 X200.756 Y141.237 E27.64517
G1 X177.256 Y141.237 E28.42612
G1 X177.256 Y169.751 E29.37369
G1 X163.756 Y169.751 E29.82233
G1 X163.756 Y189.481 E30.47799
G1 X178.256 Y189.481 E30.95986
G1 X178.256 Y224.981 E32.13959
G1 X142.756 Y224.981 E33.31933
G1 X142.756 Y189.481 E34.49906
G1 X157.256 Y189.481 E34.98093
G1 X157.256 Y169.751 E35.63659
G1 X142.756 Y169.751 E36.11846
G1 X142.756 Y141.237 E37.06604
G1 X119.246 Y141.237 E37.84732
G1 X119.246 Y174.749 E38.96099
G1 X57.746 Y174.749 E41.00476
G1 X57.746 Y101.251 E43.44724
G1 X119.246 Y101.251 E45.49101
G1 X119.246 Y134.737 E46.60381
G1 X142.756 Y134.737 E47.3851
G1 X142.756 Y105.251 E48.36498
G1 X157.204 Y105.251 E48.84511
G1 X157.204 Y85.519 E49.50084
G1 X142.704 Y85.519 E49.98271
G1 X142.704 Y50.019 E51.16244
G1 X178.204 Y50.019 E52.34218
G1 X178.204 Y85.519 E53.52191
G1 X163.704 Y85.519 E54.00378
G0 F2625 X163.634 Y85.449
G0 X163.17 Y106.717
G0 X165.232 Y106.723
G0 X165.232 Y108.327
G0 X155.728 Y166.694
G0 X155.686 Y168.321
G0 X155.756 Y168.251
G1 F900 X165.256 Y168.251 E54.31948
G1 X165.256 Y166.723 E54.37026
G1 X156.006 Y166.722 E54.67766
G1 X155.756 Y166.722 E54.68596
G1 X155.756 Y166.972 E54.69134
G1 X155.756 Y168.251 E54.73384
G0 F2625 X156.256 Y167.751
;TYPE:WALL-OUTER
G1 F900 X164.756 Y167.751 E55.01632
G1 X164.756 Y167.223 E55.03386
G1 X156.506 Y167.222 E55.30803
G1 X156.256 Y167.222 E55.31633
G1 X156.256 Y167.472 E55.32171
G1 X156.256 Y167.751 E55.33098
G0 F2625 X156.506 Y167.751
G0 X156.506 Y168.351
G0 X155.728 Y168.279
G0 X155.676 Y106.723
G0 X156.204 Y106.651
G0 X156.204 Y107.251
G1 F900 X156.204 Y107.799 E55.34919
G1 X164.704 Y107.799 E55.63166
G1 X164.704 Y107.251 E55.64988
G1 X156.204 Y107.251 E55.93235
G0 F2625 X156.204 Y107.501
G0 X155.604 Y107.501
G0 X155.676 Y106.723
G0 X157.232 Y105.279
G0 X163.604 Y86.019
G0 X164.204 Y86.019
G1 F900 X164.204 Y104.751 E56.55485
G1 X177.756 Y104.751 E57.00521
G1 X177.756 Y134.237 E57.98509
G1 X200.256 Y134.237 E58.73281
G1 X200.256 Y119.751 E59.2142
G1 X232.754 Y119.751 E60.29418
G1 X232.754 Y156.251 E61.50715
G1 X200.256 Y156.251 E62.58712
G1 X200.256 Y141.737 E63.06945
G1 X177.756 Y141.737 E63.81717
G1 X177.756 Y170.251 E64.76474
G1 X164.256 Y170.251 E65.21338
G1 X164.256 Y188.981 E65.83581
G1 X178.756 Y188.981 E66.31767
G1 X178.756 Y225.481 E67.53064
G1 X142.256 Y225.481 E68.74361
G1 X142.256 Y188.981 E69.95658
G1 X156.756 Y188.981 E70.43844
G1 X156.756 Y170.251 E71.06088
G1 X142.256 Y170.251 E71.54274
G1 X142.256 Y141.737 E72.49032
G1 X119.746 Y141.737 E73.23837
G1 X119.746 Y175.249 E74.35204
G1 X57.246 Y175.249 E76.42904
G1 X57.246 Y100.751 E78.90475
G1 X119.746 Y100.751 E80.98175
G1 X119.746 Y134.237 E82.09456
G1 X142.256 Y134.237 E82.84261
G1 X142.256 Y104.751 E83.82249
G1 X156.704 Y104.751 E84.30262
G1 X156.704 Y86.019 E84.92513
G1 X142.204 Y86.019 E85.40699
G1 X142.204 Y49.519 E86.61996
G1 X178.704 Y49.519 E87.83292
G1 X178.704 Y86.019 E89.04589
G1 X164.204 Y86.019 E89.52776
G0 F2625 X164.204 Y86.269
G0 X163.604 Y86.269
G0 X163.214 Y85.029
;TYPE:SKIN
G1 F900 X163.214 Y105.741 E90.21606
G1 X176.766 Y105.741 E90.66642
G1 X176.766 Y135.227 E91.64629
G1 X201.246 Y135.227 E92.45981
G1 X201.246 Y120.741 E92.94121
G1 X231.764 Y120.741 E93.95539
G1 X231.764 Y155.261 E95.10255
G1 X201.246 Y155.261 E96.11673
G1 X201.246 Y140.747 E96.59906
G1 X176.766 Y140.747 E97.41257
G1 X176.766 Y169.261 E98.36015
G1 X163.266 Y169.261 E98.80878
G1 X163.266 Y189.971 E99.49702
G1 X177.766 Y189.971 E99.97888
G1 X177.766 Y224.491 E101.12605
G1 X143.246 Y224.491 E102.27322
G1 X143.246 Y189.971 E103.42039
G1 X157.746 Y189.971 E103.90225
G1 X157.746 Y169.261 E104.59048
G1 X143.246 Y169.261 E105.07235
G1 X143.246 Y140.747 E106.01992
G1 X118.756 Y140.747 E106.83378
G1 X118.756 Y174.259 E107.94745
G1 X58.236 Y174.259 E109.95865
G1 X58.236 Y101.741 E112.36856
G1 X118.756 Y101.741 E114.37976
G1 X118.756 Y135.227 E115.49257
G1 X143.246 Y135.227 E116.30642
G1 X143.246 Y105.741 E117.2863
G1 X157.694 Y105.741 E117.76643
G1 X157.694 Y85.029 E118.45473
G1 X143.194 Y85.029 E118.9366
G1 X143.194 Y50.509 E120.08377
G1 X177.714 Y50.509 E121.23093
G1 X177.714 Y85.029 E122.3781
G1 X163.214 Y85.029 E122.85997
G0 F2625 X163.676 Y105.279
G0 X165.694 Y106.261
G1 F900 X155.214 Y106.261 E123.20824
G1 X155.214 Y108.789 E123.29225
G1 X165.694 Y108.789 E123.64052
G1 X165.694 Y106.261 E123.72453
G0 F2625 X165.746 Y166.233
G1 F900 X155.266 Y166.232 E124.0728
G1 X155.266 Y168.741 E124.15618
G1 X165.746 Y168.741 E124.50445
G1 X165.746 Y166.233 E124.5878
G0 F2625 X142.784 Y141.209
G0 X119.218 Y141.209
G0 X58.774 Y174.033
G1 F900 X58.46 Y173.719 E124.60255
G0 F2625 X58.46 Y173.012
G1 F900 X59.481 Y174.033 E124.65054
G1 X59.569 Y174.121
G0 F2625 X60.188 Y174.033
G1 F900 X58.46 Y172.304 E124.73177
G1 X58.372 Y172.216
G0 F2625 X58.46 Y171.597
G1 F900 X60.896 Y174.033 E124.84626
G1 X60.984 Y174.121
G0 F2625 X61.603 Y174.033
G1 F900 X58.46 Y170.89 E124.99397
G1 X58.372 Y170.802
G0 F2625 X58.46 Y170.183
G1 F900 X62.31 Y174.033 E125.17491
G1 X62.398 Y174.121
G0 F2625 X63.017 Y174.033
G1 F900 X58.46 Y169.476 E125.38907
G1 X58.372 Y169.388
G0 F2625 X58.46 Y168.769
G1 F900 X63.724 Y174.033 E125.63647
G1 X63.812 Y174.121
G0 F2625 X64.431 Y174.033
G1 F900 X58.46 Y168.062 E125.91709
G1 X58.372 Y167.974
G0 F2625 X58.46 Y167.355
G1 F900 X65.138 Y174.033 E126.23093
G1 X65.226 Y174.121
G0 F2625 X65.845 Y174.033
G1 F900 X58.46 Y166.648 E126.57801
G1 X58.372 Y166.56
G0 F2625 X58.46 Y165.94
G1 F900 X66.552 Y174.033 E126.95833
G1 X66.64 Y174.121
G0 F2625 X67.259 Y174.033
G1 F900 X58.46 Y165.233 E127.37188
G1 X58.372 Y165.145
G0 F2625 X58.46 Y164.526
G1 F900 X67.967 Y174.033 E127.81868
G1 X68.055 Y174.121
G0 F2625 X68.674 Y174.033
G1 F900 X58.46 Y163.819 E128.29871
G1 X58.372 Y163.731
G0 F2625 X58.46 Y163.112
G1 F900 X69.381 Y174.033 E128.81197
G1 X69.469 Y174.121
G0 F2625 X70.088 Y174.033
G1 F900 X58.46 Y162.405 E129.35845
G1 X58.372 Y162.317
G0 F2625 X58.46 Y161.698
G1 F900 X70.795 Y174.033 E129.93816
G1 X70.883 Y174.121
G0 F2625 X71.502 Y174.033
G1 F900 X58.46 Y160.991 E130.5511
G1 X58.372 Y160.903
G0 F2625 X58.46 Y160.284
G1 F900 X72.209 Y174.033 E131.19726
G1 X72.297 Y174.121
G0 F2625 X72.916 Y174.033
G1 F900 X58.46 Y159.577 E131.87665
G1 X58.372 Y159.489
G0 F2625 X58.46 Y158.869
G1 F900 X73.623 Y174.033 E132.58929
G1 X73.711 Y174.121
G0 F2625 X74.331 Y174.033
G1 F900 X58.46 Y158.162 E133.33518
G1 X58.372 Y158.074
G0 F2625 X58.46 Y157.455
G1 F900 X75.038 Y174.033 E134.1143
G1 X75.126 Y174.121
G0 F2625 X75.745 Y174.033
G1 F900 X58.46 Y156.748 E134.92665
G1 X58.372 Y156.66
G0 F2625 X58.46 Y156.041
G1 F900 X76.452 Y174.033 E135.77222
G1 X76.54 Y174.121
G0 F2625 X77.159 Y174.033
G1 F900 X58.46 Y155.334 E136.65102
G1 X58.372 Y155.246
G0 F2625 X58.46 Y154.627
G1 F900 X77.866 Y174.033 E137.56304
G1 X77.954 Y174.121
G0 F2625 X78.573 Y174.033
G1 F900 X58.46 Y153.92 E138.5083
G1 X58.372 Y153.832
G0 F2625 X58.46 Y153.213
G1 F900 X79.28 Y174.033 E139.48678
G1 X79.368 Y174.121
G0 F2625 X79.987 Y174.033
G1 F900 X58.46 Y152.505 E140.49851
G1 X58.372 Y152.417
G0 F2625 X58.46 Y151.798
G1 F900 X80.695 Y174.033 E141.54349
G1 X80.783 Y174.121
G0 F2625 X81.402 Y174.033
G1 F900 X58.46 Y151.091 E142.6217
G1 X58.372 Y151.003
G0 F2625 X58.46 Y150.384
G1 F900 X82.109 Y174.033 E143.73313
G1 X82.197 Y174.121
G0 F2625 X82.816 Y174.033
G1 F900 X58.46 Y149.677 E144.87779
G1 X58.372 Y149.589
G0 F2625 X58.46 Y148.97
G1 F900 X83.523 Y174.033 E146.05568
G1 X83.611 Y174.121
G0 F2625 X84.23 Y174.033
G1 F900 X58.46 Y148.263 E147.2668
G1 X58.372 Y148.175
G0 F2625 X58.46 Y147.556
G1 F900 X84.937 Y174.033 E148.51114
G1 X85.025 Y174.121
G0 F2625 X85.644 Y174.033
G1 F900 X58.46 Y146.849 E149.78871
G1 X58.372 Y146.761
G0 F2625 X58.46 Y146.142
G1 F900 X86.351 Y174.033 E151.09951
G1 X86.439 Y174.121
G0 F2625 X87.058 Y174.033
G1 F900 X58.46 Y145.434 E152.44355
G1 X58.372 Y145.346
G0 F2625 X58.46 Y144.727
G1 F900 X87.766 Y174.033 E153.82085
G1 X87.854 Y174.121
G0 F2625 X88.473 Y174.033
G1 F900 X58.46 Y144.02 E155.23138
G1 X58.372 Y143.932
G0 F2625 X58.46 Y143.313
G1 F900 X89.18 Y174.033 E156.67513
G1 X89.268 Y174.121
G0 F2625 X89.887 Y174.033
G1 F900 X58.46 Y142.606 E158.15211
G1 X58.372 Y142.518
G0 F2625 X58.46 Y141.899
G1 F900 X90.594 Y174.033 E159.66231
G1 X90.682 Y174.121
G0 F2625 X91.301 Y174.033
G1 F900 X58.46 Y141.192 E161.20574
G1 X58.372 Y141.104
G0 F2625 X58.46 Y140.485
G1 F900 X92.008 Y174.033 E162.7824
G1 X92.096 Y174.121
G0 F2625 X92.715 Y174.033
G1 F900 X58.46 Y139.778 E164.39229
G1 X58.372 Y139.69
G0 F2625 X58.46 Y139.07
G1 F900 X93.422 Y174.033 E166.03543
G1 X93.51 Y174.121
G0 F2625 X94.13 Y174.033
G1 F900 X58.46 Y138.363 E167.71181
G1 X58.372 Y138.275
G0 F2625 X58.46 Y137.656
G1 F900 X94.837 Y174.033 E169.42143
G1 X94.925 Y174.121
G0 F2625 X95.544 Y174.033
G1 F900 X58.46 Y136.949 E171.16427
G1 X58.372 Y136.861
G0 F2625 X58.46 Y136.242
G1 F900 X96.251 Y174.033 E172.94034
G1 X96.339 Y174.121
G0 F2625 X96.958 Y174.033
G1 F900 X58.46 Y135.535 E174.74963
G1 X58.372 Y135.447
G0 F2625 X58.46 Y134.828
G1 F900 X97.665 Y174.033 E176.59216
G1 X97.753 Y174.121
G0 F2625 X98.372 Y174.033
G1 F900 X58.46 Y134.121 E178.4679
G1 X58.372 Y134.033
G0 F2625 X58.46 Y133.414
G1 F900 X99.079 Y174.033 E180.37688
G1 X99.167 Y174.121
G0 F2625 X99.786 Y174.033
G1 F900 X58.46 Y132.706 E182.31911
G1 X58.372 Y132.618
G0 F2625 X58.46 Y131.999
G1 F900 X100.494 Y174.033 E184.29458
G1 X100.582 Y174.121
G0 F2625 X101.201 Y174.033
G1 F900 X58.46 Y131.292 E186.30329
G1 X58.372 Y131.204
G0 F2625 X58.46 Y130.585
G1 F900 X101.908 Y174.033 E188.34522
G1 X101.996 Y174.121
G0 F2625 X102.615 Y174.033
G1 F900 X58.46 Y129.878 E190.42038
G1 X58.372 Y129.79
G0 F2625 X58.46 Y129.171
G1 F900 X103.322 Y174.033 E192.52876
G1 X103.41 Y174.121
G0 F2625 X104.029 Y174.033
G1 F900 X58.46 Y128.464 E194.67037
G1 X58.372 Y128.376
G0 F2625 X58.46 Y127.757
G1 F900 X104.736 Y174.033 E196.84521
G1 X104.824 Y174.121
G0 F2625 X105.443 Y174.033
