;Generated by Cura LulzBot Edition GCodeWriter Version: 3.2.32
;FLAVOR:Marlin
;TIME:586
;Filament used: 0.118999m
;Layer height: 0.22
;Generated with Cura_SteamEngine 3.2.32
M82 ;absolute extrusion mode
;This G-Code has been generated specifically for the LulzBot TAZ 5 with standard extruder
M75			 ; start GLCD timer
M140 S110    ; start bed heating up
G21                      ; set units to Millimetres
G90                      ; absolute positioning
M107                     ; disable fans
M82                      ; set extruder to absolute mode
G28 X0 Y0                ; home X and Y
G28 Z0                   ; home Z
G1 Z15.0 F175 ; move extruder up
M117 Heating...                     ; progress indicator message on LCD
M109 R240  ; wait for extruder to reach printing temp
M190 S110    ; wait for bed to reach printing temp
G92 E0                   ; set extruder position to 0
G1 F200 E0               ; prime the nozzle with filament
G92 E0                   ; re-set extruder position to 0
G1 F175       ; set travel speed
M203 X192 Y208 Z3        ; set limits on travel speed
M117 TAZ 5 Printing...   ; progress indicator message on LCD

M221 S100
;LAYER_COUNT:37
;LAYER:0
M107
G0 F2625 X132.963 Y126.611 Z0.424
;TYPE:SKIRT
G1 F900 X134.194 Y125.387 E0.05769
G1 X134.612 Y125.023 E0.07611
G1 X135.597 Y124.271 E0.11729
G1 X136.023 Y123.985 E0.13434
G1 X137.522 Y123.104 E0.19212
G1 X138.048 Y122.842 E0.21165
G1 X139.518 Y122.233 E0.26453
G1 X139.956 Y122.079 E0.27996
G1 X140.996 Y121.776 E0.31596
G1 X141.535 Y121.656 E0.33431
G1 X143.621 Y121.333 E0.40446
G1 X144.304 Y121.283 E0.42721
G1 X145.973 Y121.296 E0.48268
G1 X146.576 Y121.344 E0.50278
G1 X148.156 Y121.583 E0.55589
G1 X148.604 Y121.676 E0.57109
G1 X149.665 Y121.956 E0.60756
G1 X150.129 Y122.107 E0.62377
G1 X151.645 Y122.7 E0.67787
G1 X152.094 Y122.906 E0.69429
G1 X153.191 Y123.49 E0.73559
G1 X153.655 Y123.777 E0.75372
G1 X155.177 Y124.858 E0.81576
G1 X155.714 Y125.31 E0.83908
G1 X157.147 Y126.736 E0.90626
G1 X157.53 Y127.174 E0.9256
G1 X158.201 Y128.055 E0.9624
G1 X158.485 Y128.478 E0.97933
G1 X159.442 Y130.108 E1.04215
G1 X159.722 Y130.679 E1.06328
G1 X160.351 Y132.248 E1.11946
G1 X160.513 Y132.735 E1.13651
G1 X160.858 Y134.03 E1.18105
G1 X160.961 Y134.54 E1.19834
G1 X161.165 Y136.011 E1.24769
G1 X161.203 Y136.464 E1.2628
G1 X161.237 Y137.567 E1.29947
G1 X161.225 Y138.04 E1.31519
G1 X161.108 Y139.489 E1.3635
G1 X161.026 Y140.044 E1.38215
G1 X160.66 Y141.74 E1.43981
G1 X160.485 Y142.336 E1.46045
G1 X159.839 Y144.058 E1.52157
G1 X159.584 Y144.613 E1.54187
G1 X158.799 Y146.04 E1.59599
G1 X158.502 Y146.505 E1.61433
G1 X157.63 Y147.694 E1.66333
G1 X157.291 Y148.101 E1.68093
G1 X156.231 Y149.222 E1.7322
G1 X155.805 Y149.615 E1.75146
G1 X154.567 Y150.61 E1.80424
G1 X154.166 Y150.896 E1.82061
G1 X153.179 Y151.516 E1.85934
G1 X152.665 Y151.791 E1.87872
G1 X152.119 Y151.994 E1.89808
G1 X151.55 Y152.12 E1.91744
G1 X150.918 Y152.167 E1.9385
G1 X139.108 Y152.168 E2.33097
G1 X138.527 Y152.128 E2.35033
G1 X137.957 Y152.009 E2.36968
G1 X137.408 Y151.813 E2.38905
G1 X136.77 Y151.467 E2.41317
G1 X135.17 Y150.413 E2.47684
G1 X134.631 Y149.992 E2.49957
G1 X133.426 Y148.884 E2.55397
G1 X133.034 Y148.472 E2.57287
G1 X132.066 Y147.307 E2.6232
G1 X131.778 Y146.917 E2.63931
G1 X131.096 Y145.874 E2.68073
G1 X130.81 Y145.362 E2.70022
G1 X129.934 Y143.506 E2.76842
G1 X129.74 Y143.022 E2.78575
G1 X129.426 Y142.069 E2.81909
G1 X129.307 Y141.629 E2.83424
G1 X128.979 Y140.097 E2.8863
G1 X128.901 Y139.575 E2.90384
G1 X128.781 Y138.196 E2.94984
G1 X128.766 Y137.734 E2.96521
G1 X128.792 Y136.553 E3.00446
G1 X128.822 Y136.137 E3.01832
G1 X128.953 Y135.053 E3.05461
G1 X129.048 Y134.535 E3.07211
G1 X129.511 Y132.678 E3.13571
G1 X129.698 Y132.105 E3.15574
G1 X130.285 Y130.662 E3.20751
G1 X130.496 Y130.219 E3.22382
G1 X131.057 Y129.196 E3.26259
G1 X131.348 Y128.737 E3.28065
G1 X132.525 Y127.122 E3.34706
G1 X132.963 Y126.611 E3.36943
G0 F2625 X133.316 Y126.966
G1 F900 X134.547 Y125.742 E3.42712
G1 X134.915 Y125.42 E3.44337
G1 X135.9 Y124.668 E3.48455
G1 X136.276 Y124.416 E3.49959
G1 X137.775 Y123.535 E3.55737
G1 X138.24 Y123.304 E3.57463
G1 X139.71 Y122.695 E3.6275
G1 X140.096 Y122.559 E3.6411
G1 X141.136 Y122.256 E3.6771
G1 X141.611 Y122.15 E3.69328
G1 X143.697 Y121.827 E3.76342
G1 X144.3 Y121.783 E3.78352
G1 X145.969 Y121.796 E3.83898
G1 X146.501 Y121.838 E3.85672
G1 X148.081 Y122.077 E3.90982
G1 X148.477 Y122.159 E3.92326
G1 X149.538 Y122.439 E3.95973
G1 X149.947 Y122.573 E3.97403
G1 X151.463 Y123.166 E4.02812
G1 X151.859 Y123.348 E4.04261
G1 X152.956 Y123.932 E4.08391
G1 X153.365 Y124.185 E4.09989
G1 X154.887 Y125.266 E4.16193
G1 X155.361 Y125.665 E4.18252
G1 X156.794 Y127.091 E4.2497
G1 X157.132 Y127.477 E4.26675
G1 X157.803 Y128.358 E4.30355
G1 X158.054 Y128.731 E4.31849
G1 X159.011 Y130.361 E4.38131
G1 X159.258 Y130.865 E4.39996
G1 X159.887 Y132.434 E4.45613
G1 X160.03 Y132.864 E4.47119
G1 X160.375 Y134.159 E4.51573
G1 X160.465 Y134.609 E4.53098
G1 X160.669 Y136.08 E4.58033
G1 X160.703 Y136.479 E4.59364
G1 X160.737 Y137.582 E4.63031
G1 X160.727 Y138 E4.64421
G1 X160.61 Y139.449 E4.69252
G1 X160.538 Y139.938 E4.70894
G1 X160.172 Y141.634 E4.7666
G1 X160.017 Y142.16 E4.78483
G1 X159.371 Y143.882 E4.84595
G1 X159.146 Y144.372 E4.86386
G1 X158.361 Y145.799 E4.91799
G1 X158.099 Y146.21 E4.93418
G1 X157.227 Y147.399 E4.98318
G1 X156.928 Y147.757 E4.99869
G1 X155.868 Y148.878 E5.04996
G1 X155.492 Y149.225 E5.06696
G1 X154.254 Y150.22 E5.11974
G1 X153.9 Y150.472 E5.13418
G1 X152.913 Y151.092 E5.17292
G1 X152.429 Y151.349 E5.19113
G1 X151.914 Y151.532 E5.20929
G1 X151.377 Y151.639 E5.22749
G1 X150.918 Y151.667 E5.24277
G1 X139.108 Y151.668 E5.63524
G1 X138.562 Y151.628 E5.65343
G1 X138.028 Y151.509 E5.67161
G1 X137.517 Y151.314 E5.68979
G1 X137.045 Y151.05 E5.70776
G1 X135.445 Y149.996 E5.77143
G1 X134.97 Y149.624 E5.79148
G1 X133.765 Y148.516 E5.84588
G1 X133.419 Y148.153 E5.86255
G1 X132.451 Y146.988 E5.91288
G1 X132.196 Y146.643 E5.92714
G1 X131.514 Y145.6 E5.96855
G1 X131.262 Y145.149 E5.98572
G1 X130.386 Y143.293 E6.05392
G1 X130.215 Y142.866 E6.06921
G1 X129.901 Y141.913 E6.10256
G1 X129.796 Y141.524 E6.11595
G1 X129.468 Y139.992 E6.16801
G1 X129.399 Y139.532 E6.18347
G1 X129.279 Y138.153 E6.22947
G1 X129.266 Y137.745 E6.24303
G1 X129.292 Y136.564 E6.28229
G1 X129.318 Y136.197 E6.29452
G1 X129.449 Y135.113 E6.3308
G1 X129.533 Y134.656 E6.34624
G1 X129.996 Y132.799 E6.40985
G1 X130.161 Y132.293 E6.42753
G1 X130.748 Y130.85 E6.4793
G1 X130.934 Y130.46 E6.49366
G1 X131.495 Y129.437 E6.53243
G1 X131.752 Y129.031 E6.5484
G1 X132.929 Y127.416 E6.61481
G1 X133.316 Y126.966 E6.63454
G0 F2625 X133.668 Y127.32
G1 F900 X134.899 Y126.096 E6.69222
G1 X135.219 Y125.818 E6.70631
G1 X136.204 Y125.066 E6.74749
G1 X136.529 Y124.847 E6.76052
G1 X138.028 Y123.966 E6.8183
G1 X138.431 Y123.765 E6.83326
G1 X139.901 Y123.156 E6.88614
G1 X140.236 Y123.039 E6.89793
G1 X141.276 Y122.736 E6.93393
G1 X141.688 Y122.644 E6.94796
G1 X143.774 Y122.321 E7.01811
G1 X144.296 Y122.283 E7.0355
G1 X145.965 Y122.296 E7.09097
G1 X146.426 Y122.333 E7.10634
G1 X148.006 Y122.572 E7.15944
G1 X148.349 Y122.643 E7.17108
G1 X149.41 Y122.923 E7.20755
G1 X149.765 Y123.038 E7.21995
G1 X151.281 Y123.631 E7.27405
G1 X151.624 Y123.789 E7.2866
G1 X152.721 Y124.373 E7.32789
G1 X153.076 Y124.592 E7.34176
G1 X154.598 Y125.673 E7.40379
G1 X155.008 Y126.019 E7.42162
G1 X156.441 Y127.445 E7.48881
G1 X156.734 Y127.78 E7.5036
G1 X157.405 Y128.661 E7.5404
G1 X157.623 Y128.985 E7.55338
G1 X158.58 Y130.615 E7.61619
G1 X158.794 Y131.051 E7.63233
G1 X159.423 Y132.62 E7.6885
G1 X159.546 Y132.992 E7.70153
G1 X159.891 Y134.287 E7.74606
G1 X159.97 Y134.678 E7.75932
G1 X160.174 Y136.149 E7.80867
G1 X160.203 Y136.495 E7.82021
G1 X160.237 Y137.598 E7.85688
G1 X160.228 Y137.96 E7.86891
G1 X160.111 Y139.409 E7.91722
G1 X160.049 Y139.833 E7.93146
G1 X159.683 Y141.529 E7.98912
G1 X159.549 Y141.985 E8.00492
G1 X158.903 Y143.707 E8.06604
G1 X158.708 Y144.131 E8.08155
G1 X157.923 Y145.558 E8.13567
G1 X157.696 Y145.914 E8.1497
G1 X156.824 Y147.103 E8.1987
G1 X156.564 Y147.414 E8.21217
G1 X155.504 Y148.535 E8.26344
G1 X155.179 Y148.835 E8.27814
G1 X153.941 Y149.83 E8.33092
G1 X153.634 Y150.049 E8.34346
G1 X152.647 Y150.669 E8.38219
G1 X152.195 Y150.905 E8.39914
G1 X151.713 Y151.068 E8.41604
G1 X151.21 Y151.154 E8.433
G1 X150.918 Y151.167 E8.44272
G1 X139.108 Y151.168 E8.83519
G1 X138.6 Y151.128 E8.85212
G1 X138.105 Y151.009 E8.86904
G1 X137.634 Y150.815 E8.88597
G1 X137.32 Y150.632 E8.89804
G1 X135.72 Y149.578 E8.96172
G1 X135.308 Y149.256 E8.97909
G1 X134.103 Y148.148 E9.03349
G1 X133.803 Y147.833 E9.04795
G1 X132.835 Y146.668 E9.09828
G1 X132.615 Y146.37 E9.11059
G1 X131.933 Y145.327 E9.15201
G1 X131.714 Y144.935 E9.16693
G1 X130.838 Y143.079 E9.23513
G1 X130.69 Y142.709 E9.24837
G1 X130.376 Y141.756 E9.28172
G1 X130.285 Y141.419 E9.29332
G1 X129.957 Y139.887 E9.34539
G1 X129.897 Y139.489 E9.35876
G1 X129.777 Y138.11 E9.40476
G1 X129.766 Y137.756 E9.41653
G1 X129.792 Y136.575 E9.45579
G1 X129.814 Y136.257 E9.46638
G1 X129.945 Y135.173 E9.50267
G1 X130.019 Y134.777 E9.51605
G1 X130.482 Y132.92 E9.57965
G1 X130.625 Y132.481 E9.595
G1 X131.212 Y131.038 E9.64677
G1 X131.372 Y130.7 E9.65919
G1 X131.933 Y129.677 E9.69797
G1 X132.157 Y129.326 E9.7118
G1 X133.334 Y127.711 E9.77822
G1 X133.668 Y127.32 E9.7953
G1 F600 E8.7953
G0 F2625 X133.524 Y132.167
G0 X134.212 Y132.923
G0 X133.729 Y136.888
G0 X133.746 Y138.125
G0 X133.914 Y139.897
G0 X134.011 Y139.876
;TYPE:WALL-OUTER
G1 F600 E9.7953
G1 F900 X134.012 Y139.878 E9.79538
G1 X134.127 Y140.357 E9.81175
G1 X134.279 Y140.873 E9.82963
G1 X134.312 Y140.969 E9.833
G1 X134.439 Y141.341 E9.84606
G1 X134.618 Y141.801 E9.86246
G1 X134.764 Y142.135 E9.87458
G1 X134.815 Y142.252 E9.87882
G1 X134.873 Y142.37 E9.88319
G1 X135.034 Y142.697 E9.8953
G1 X135.215 Y143.025 E9.90775
G1 X135.293 Y143.167 E9.91314
G1 X135.549 Y143.59 E9.92957
G1 X135.824 Y144.001 E9.946
G1 X136.116 Y144.396 E9.96232
G1 X136.117 Y144.397 E9.96237
G1 X136.426 Y144.782 E9.97878
G1 X136.753 Y145.152 E9.99519
G1 X137.127 Y145.538 E10.01305
G1 X137.188 Y145.595 E10.01582
G1 X137.489 Y145.875 E10.02948
G1 X137.863 Y146.194 E10.04582
G1 X138.252 Y146.497 E10.06221
G1 X138.655 Y146.783 E10.07863
G1 X139.107 Y147.073 E10.09647
G1 X139.534 Y147.323 E10.11292
G1 X139.973 Y147.553 E10.12939
G1 X140.238 Y147.678 E10.13912
G1 X139.973 Y147.678
G1 X139.534 Y147.678 E10.14102
G1 X139.149 Y147.678 E10.15381
G1 X138.937 Y147.557 E10.16193
G1 X138.838 Y147.494 E10.16583
G1 X138.393 Y147.208 E10.18337
G1 X138.372 Y147.194 E10.18421
G1 X138.077 Y146.989 E10.19615
G1 X137.955 Y146.899 E10.20118
G1 X137.815 Y146.795 E10.20698
G1 X137.55 Y146.579 E10.21834
G1 X137.317 Y146.39 E10.22831
G1 X137.155 Y146.242 E10.2356
G1 X136.848 Y145.961 E10.24937
G1 X136.779 Y145.893 E10.25257
G1 X136.63 Y145.746 E10.25953
G1 X136.391 Y145.488 E10.27122
G1 X136.135 Y145.211 E10.28375
G1 X136.043 Y145.099 E10.28857
G1 X135.729 Y144.717 E10.30495
G1 X135.71 Y144.691 E10.30602
G1 X135.421 Y144.294 E10.32231
G1 X135.355 Y144.204 E10.32602
G1 X135.133 Y143.859 E10.33965
G1 X134.976 Y143.615 E10.34929
G1 X134.862 Y143.416 E10.35691
G1 X134.782 Y143.276 E10.36226
G1 X134.652 Y143.051 E10.37089
G1 X134.507 Y142.77 E10.3814
G1 X134.419 Y142.581 E10.38833
G1 X134.364 Y142.462 E10.39267
G1 X134.31 Y142.346 E10.39691
G1 X134.238 Y142.191 E10.40259
G1 X134.115 Y141.9 E10.41309
G1 X133.976 Y141.538 E10.42598
G1 X133.869 Y141.231 E10.43678
G1 X133.834 Y141.118 E10.44071
G1 X133.804 Y141.021 E10.44408
G1 X133.681 Y140.625 E10.45786
G1 X133.645 Y140.479 E10.46285
G1 X133.525 Y140.001 E10.47918
G1 X133.426 Y139.504 E10.49602
G1 X133.374 Y139.182 E10.50686
G1 X133.363 Y139.093 E10.50984
G1 X133.349 Y138.962 E10.51422
G1 X133.294 Y138.471 E10.53064
G1 X133.281 Y138.364 E10.53422
G1 X133.272 Y138.168 E10.54074
G1 X133.263 Y137.943 E10.54822
G1 X133.252 Y137.713 E10.55588
G1 X133.256 Y137.379 E10.56698
G1 X133.261 Y136.998 E10.57964
G1 X133.27 Y136.857 E10.58433
G1 X133.304 Y136.377 E10.60033
G1 X133.31 Y136.337 E10.60167
G1 X133.372 Y135.847 E10.61808
G1 X133.386 Y135.744 E10.62154
G1 X133.462 Y135.332 E10.63546
G1 X133.48 Y135.235 E10.63874
G1 X133.503 Y135.113 E10.64286
G1 X133.591 Y134.721 E10.65622
G1 X133.755 Y134.118 E10.67698
G1 X133.85 Y133.833 E10.68697
G1 X133.865 Y133.788 E10.68854
G1 X133.962 Y133.5 E10.69864
G1 X134.041 Y133.301 E10.70576
G1 X134.194 Y132.916 E10.71952
G1 X134.356 Y132.548 E10.73289
G1 X134.435 Y132.389 E10.73879
G1 X134.45 Y132.357 E10.73996
G1 X134.478 Y132.299 E10.7421
G1 X134.638 Y131.976 E10.75408
G1 X134.946 Y131.433 E10.77483
G1 X134.968 Y131.399 E10.77617
G1 X135.233 Y130.986 E10.79248
G1 X135.276 Y130.918 E10.79515
G1 X135.298 Y130.885 E10.79647
G1 X135.517 Y130.57 E10.80922
G1 X135.705 Y130.317 E10.81969
G1 X135.78 Y130.225 E10.82364
G1 X135.849 Y130.141 E10.82725
G1 X136.109 Y129.821 E10.84095
G1 X136.212 Y129.708 E10.84603
G1 X136.547 Y129.341 E10.86255
G1 X136.565 Y129.323 E10.86339
G1 X136.919 Y128.979 E10.8798
G1 X137.021 Y128.879 E10.88454
G1 X137.052 Y128.849 E10.88598
G1 X137.285 Y128.639 E10.8964
G1 X137.314 Y128.615 E10.89765
G1 X137.695 Y128.304 E10.914
G1 X137.79 Y128.226 E10.91808
G1 X138.112 Y127.991 E10.93133
G1 X138.305 Y127.85 E10.93927
G1 X138.581 Y127.672 E10.95019
G1 X138.904 Y127.464 E10.96295
G1 X139.023 Y127.397 E10.96749
G1 X139.449 Y127.155 E10.98377
G1 X139.734 Y127.007 E10.99444
G1 X140.026 Y126.866 E11.00522
G1 X140.31 Y126.739 E11.01556
G1 X140.672 Y126.589 E11.02858
G1 X140.82 Y126.535 E11.03382
G1 X140.921 Y126.498 E11.03739
G1 X141.277 Y126.368 E11.04999
G1 X141.411 Y126.327 E11.05464
G1 X141.883 Y126.181 E11.07106
G1 X141.911 Y126.174 E11.07202
G1 X142.389 Y126.054 E11.0884
G1 X142.502 Y126.025 E11.09228
G1 X142.893 Y125.948 E11.10552
G1 X142.908 Y125.946 E11.10602
G1 X143.199 Y125.895 E11.11584
G1 X143.417 Y125.867 E11.12314
G1 X143.844 Y125.81 E11.13746
G1 X143.969 Y125.799 E11.14163
G1 X144.15 Y125.783 E11.14767
G1 X144.477 Y125.763 E11.15855
G1 X144.491 Y125.763 E11.15902
G1 X144.795 Y125.753 E11.16913
G1 X144.998 Y125.753 E11.17587
G1 X145.181 Y125.752 E11.18196
G1 X145.574 Y125.768 E11.19503
G1 X145.7 Y125.773 E11.19922
G1 X145.832 Y125.78 E11.20361
G1 X146.138 Y125.806 E11.21382
G1 X146.77 Y125.889 E11.235
G1 X147.282 Y125.984 E11.2523
G1 X147.475 Y126.021 E11.25883
G1 X147.849 Y126.113 E11.27163
G1 X147.884 Y126.121 E11.27283
G1 X148.1 Y126.175 E11.28023
G1 X148.392 Y126.259 E11.29032
G1 X149.01 Y126.467 E11.31199
G1 X149.295 Y126.575 E11.32212
G1 X149.447 Y126.64 E11.32761
G1 X149.496 Y126.661 E11.32939
G1 X149.964 Y126.862 E11.34631
G1 X150.535 Y127.145 E11.36749
G1 X151.077 Y127.452 E11.38819
G1 X151.516 Y127.734 E11.40553
G1 X151.677 Y127.838 E11.4119
G1 X151.993 Y128.067 E11.42487
G1 X152.195 Y128.214 E11.43317
G1 X152.451 Y128.422 E11.44413
G1 X152.687 Y128.615 E11.45426
G1 X152.889 Y128.8 E11.46337
G1 X153.167 Y129.055 E11.4759
G1 X153.309 Y129.201 E11.48267
G1 X153.659 Y129.561 E11.49936
G1 X153.705 Y129.613 E11.50166
G1 X153.869 Y129.795 E11.50981
G1 X154.077 Y130.05 E11.52074
G1 X154.281 Y130.299 E11.53144
G1 X154.432 Y130.506 E11.53995
G1 X154.657 Y130.815 E11.55266
G1 X154.766 Y130.985 E11.55937
G1 X155.037 Y131.406 E11.57601
G1 X155.196 Y131.677 E11.58645
G1 X155.29 Y131.853 E11.59308
G1 X155.351 Y131.967 E11.59737
G1 X155.504 Y132.253 E11.60815
G1 X155.611 Y132.485 E11.61664
G1 X155.656 Y132.583 E11.62023
G1 X155.766 Y132.82 E11.62891
G1 X155.916 Y133.182 E11.64193
G1 X155.995 Y133.4 E11.64964
G1 X156.047 Y133.543 E11.65469
G1 X156.139 Y133.794 E11.66358
G1 X156.23 Y134.093 E11.67396
G1 X156.322 Y134.39 E11.6843
G1 X156.386 Y134.651 E11.69323
G1 X156.479 Y135.021 E11.70591
G1 X156.517 Y135.212 E11.71238
G1 X156.554 Y135.398 E11.71868
G1 X156.608 Y135.71 E11.7292
G1 X156.618 Y135.786 E11.73175
G1 X156.69 Y136.334 E11.75012
G1 X156.693 Y136.355 E11.75082
G1 X156.719 Y136.662 E11.76106
G1 X156.726 Y136.771 E11.76469
G1 X156.734 Y136.92 E11.76965
G1 X156.738 Y136.988 E11.77191
G1 X156.749 Y137.5 E11.78893
