;Generated by Cura LulzBot Edition GCodeWriter Version: 3.2.32
;FLAVOR:Marlin
;TIME:17168
;Filament used: 10.7336m
;Layer height: 0.22
;Generated with Cura_SteamEngine 3.2.32
M82 ;absolute extrusion mode
;This G-Code has been generated specifically for the LulzBot TAZ 5 with standard extruder
M75			 ; start GLCD timer
M140 S110    ; start bed heating up
G21                      ; set units to Millimetres
G90                      ; absolute positioning
M107                     ; disable fans
M82                      ; set extruder to absolute mode
G28 X0 Y0                ; home X and Y
G28 Z0                   ; home Z
G1 Z15.0 F175 ; move extruder up
M117 Heating...                     ; progress indicator message on LCD
M109 R240  ; wait for extruder to reach printing temp
M190 S110    ; wait for bed to reach printing temp
G92 E0                   ; set extruder position to 0
G1 F200 E0               ; prime the nozzle with filament
G92 E0                   ; re-set extruder position to 0
G1 F175       ; set travel speed
M203 X192 Y208 Z3        ; set limits on travel speed
M117 TAZ 5 Printing...   ; progress indicator message on LCD

M221 S100
;LAYER_COUNT:11
;LAYER:0
M107
G0 F2625 X44.349 Y37.345 Z0.424
;TYPE:SKIRT
G1 F900 X44.679 Y36.958 E0.0169
G1 X45.066 Y36.626 E0.03385
G1 X45.501 Y36.36 E0.05079
G1 X45.971 Y36.164 E0.06771
G1 X46.466 Y36.045 E0.08463
G1 X46.979 Y36.004 E0.10173
G1 X243.021 Y36.005 E6.6166
G1 X243.529 Y36.045 E6.63353
G1 X244.024 Y36.164 E6.65045
G1 X244.495 Y36.359 E6.66739
G1 X244.93 Y36.625 E6.68434
G1 X245.317 Y36.955 E6.70124
G1 X245.649 Y37.342 E6.71818
G1 X245.915 Y37.777 E6.73513
G1 X246.111 Y38.247 E6.75205
G1 X246.23 Y38.742 E6.76897
G1 X246.271 Y39.255 E6.78607
G1 X246.271 Y235.746 E13.31586
G1 X246.231 Y236.254 E13.33279
G1 X246.112 Y236.749 E13.34971
G1 X245.917 Y237.22 E13.36665
G1 X245.651 Y237.655 E13.38359
G1 X245.321 Y238.042 E13.4005
G1 X244.934 Y238.374 E13.41744
G1 X244.499 Y238.64 E13.43439
G1 X244.029 Y238.836 E13.45131
G1 X243.534 Y238.955 E13.46823
G1 X243.021 Y238.996 E13.48533
G1 X46.979 Y238.996 E20.00019
G1 X46.471 Y238.956 E20.01713
G1 X45.976 Y238.837 E20.03405
G1 X45.505 Y238.642 E20.05099
G1 X45.07 Y238.376 E20.06793
G1 X44.683 Y238.046 E20.08483
G1 X44.351 Y237.659 E20.10178
G1 X44.085 Y237.224 E20.11872
G1 X43.889 Y236.754 E20.13564
G1 X43.77 Y236.259 E20.15256
G1 X43.729 Y235.746 E20.16967
G1 X43.729 Y39.254 E26.69948
G1 X43.769 Y38.746 E26.71642
G1 X43.888 Y38.251 E26.73334
G1 X44.083 Y37.78 E26.75028
G1 X44.349 Y37.345 E26.76722
G1 F600 E25.76722
G0 F2625 X46.305 Y40.009
G0 X47.734 Y40.009
G0 X53.764 Y41.826
G0 X53.725 Y41.918
;TYPE:WALL-INNER
G1 F600 E26.76722
G1 F900 X53.285 Y41.773 E26.78262
G1 X52.83 Y41.699 E26.79794
G1 X52.37 Y41.699 E26.81322
G1 X51.913 Y41.773 E26.82861
G1 X51.475 Y41.918 E26.84394
G1 X51.066 Y42.134 E26.85931
G1 X50.697 Y42.41 E26.87463
G1 X50.377 Y42.744 E26.89
G1 X50.115 Y43.124 E26.90534
G1 X49.916 Y43.541 E26.92069
G1 X49.788 Y43.986 E26.93608
G1 X49.733 Y44.444 E26.95141
G1 X49.751 Y44.904 E26.96671
G1 X49.843 Y45.357 E26.98207
G1 X50.007 Y45.791 E26.99749
G1 X50.239 Y46.19 E27.01282
G1 X50.53 Y46.548 E27.02816
G1 X50.876 Y46.852 E27.04346
G1 X51.265 Y47.1 E27.05879
G1 X51.691 Y47.281 E27.07417
G1 X52.139 Y47.392 E27.08951
G1 X52.6 Y47.429 E27.10488
G1 X53.06 Y47.392 E27.12022
G1 X53.508 Y47.281 E27.13556
G1 X53.934 Y47.1 E27.15094
G1 X54.324 Y46.852 E27.1663
G1 X54.67 Y46.548 E27.1816
G1 X54.962 Y46.188 E27.19701
G1 X55.192 Y45.789 E27.21231
G1 X55.356 Y45.357 E27.22767
G1 X55.448 Y44.905 E27.243
G1 X55.467 Y44.444 E27.25833
G1 X55.411 Y43.985 E27.2737
G1 X55.282 Y43.541 E27.28906
G1 X55.085 Y43.126 E27.30433
G1 X54.824 Y42.745 E27.31967
G1 X54.502 Y42.41 E27.33512
G1 X54.133 Y42.134 E27.35043
G1 X53.725 Y41.918 E27.36577
G0 F2625 X53.764 Y41.826
G0 X115.217 Y57.843
G0 X115.279 Y57.921
G1 F900 X114.401 Y58.66 E27.40391
G1 X113.56 Y59.439 E27.442
G1 X112.76 Y60.26 E27.4801
G1 X112.001 Y61.12 E27.51822
G1 X111.286 Y62.017 E27.55634
G1 X110.616 Y62.947 E27.59443
G1 X109.994 Y63.911 E27.63255
G1 X109.421 Y64.904 E27.67065
G1 X108.897 Y65.924 E27.70876
G1 X108.426 Y66.971 E27.74691
G1 X108.007 Y68.038 E27.78501
G1 X107.642 Y69.125 E27.82311
G1 X107.331 Y70.228 E27.8612
G1 X107.076 Y71.346 E27.8993
G1 X106.877 Y72.477 E27.93747
G1 X106.734 Y73.614 E27.97555
G1 X106.648 Y74.757 E28.01364
G1 X106.62 Y75.904 E28.05177
G1 X106.648 Y77.051 E28.0899
G1 X106.734 Y78.195 E28.12802
G1 X106.877 Y79.332 E28.1661
G1 X107.076 Y80.461 E28.2042
G1 X107.331 Y81.58 E28.24234
G1 X107.642 Y82.684 E28.28046
G1 X108.007 Y83.77 E28.31853
G1 X108.426 Y84.838 E28.35666
G1 X108.897 Y85.884 E28.39478
G1 X109.421 Y86.904 E28.43289
G1 X109.994 Y87.897 E28.47099
G1 X110.616 Y88.861 E28.50911
G1 X111.286 Y89.792 E28.54723
G1 X112.001 Y90.689 E28.58535
G1 X112.76 Y91.548 E28.62344
G1 X113.56 Y92.369 E28.66154
G1 X114.401 Y93.149 E28.69965
G1 X115.279 Y93.887 E28.73777
G1 X116.194 Y94.579 E28.77589
G1 X117.141 Y95.225 E28.81399
G1 X118.12 Y95.823 E28.85211
G1 X119.127 Y96.372 E28.89023
G1 X120.16 Y96.869 E28.92832
G1 X121.217 Y97.315 E28.96645
G1 X122.295 Y97.707 E29.00457
G1 X123.391 Y98.045 E29.04268
G1 X124.502 Y98.328 E29.08078
G1 X125.625 Y98.555 E29.11886
G1 X126.76 Y98.726 E29.157
G1 X127.901 Y98.84 E29.19511
G1 X129.047 Y98.897 E29.23324
G1 X130.193 Y98.897 E29.27132
G1 X131.339 Y98.84 E29.30945
G1 X132.48 Y98.726 E29.34756
G1 X133.615 Y98.555 E29.3857
G1 X134.738 Y98.328 E29.42378
G1 X135.849 Y98.045 E29.46188
G1 X136.945 Y97.707 E29.49999
G1 X138.023 Y97.315 E29.53811
G1 X139.08 Y96.869 E29.57624
G1 X140.113 Y96.372 E29.61433
G1 X141.12 Y95.823 E29.65245
G1 X142.099 Y95.225 E29.69057
G1 X143.046 Y94.579 E29.72867
G1 X143.961 Y93.887 E29.76679
G1 X144.839 Y93.149 E29.80491
G1 X145.68 Y92.369 E29.84302
G1 X146.48 Y91.548 E29.88112
G1 X147.239 Y90.689 E29.91921
G1 X147.954 Y89.792 E29.95733
G1 X148.624 Y88.861 E29.99545
G1 X149.246 Y87.897 E30.03357
G1 X149.819 Y86.904 E30.07167
G1 X150.343 Y85.884 E30.10978
G1 X150.814 Y84.838 E30.1479
G1 X151.233 Y83.771 E30.186
G1 X151.599 Y82.684 E30.22411
G1 X151.909 Y81.58 E30.26222
G1 X152.164 Y80.461 E30.30036
G1 X152.363 Y79.332 E30.33846
G1 X152.506 Y78.195 E30.37654
G1 X152.592 Y77.051 E30.41467
G1 X152.62 Y75.904 E30.45279
G1 X152.592 Y74.757 E30.49092
G1 X152.506 Y73.614 E30.52901
G1 X152.363 Y72.477 E30.5671
G1 X152.164 Y71.346 E30.60526
G1 X151.909 Y70.229 E30.64333
G1 X151.599 Y69.125 E30.68144
G1 X151.233 Y68.037 E30.71959
G1 X150.814 Y66.971 E30.75765
G1 X150.343 Y65.924 E30.79581
G1 X149.819 Y64.904 E30.83391
G1 X149.246 Y63.911 E30.87201
G1 X148.624 Y62.947 E30.91014
G1 X147.954 Y62.017 E30.94823
G1 X147.239 Y61.12 E30.98635
G1 X146.48 Y60.26 E31.02447
G1 X145.68 Y59.439 E31.06256
G1 X144.839 Y58.66 E31.10066
G1 X143.961 Y57.921 E31.13879
G1 X143.046 Y57.23 E31.1769
G1 X142.1 Y56.584 E31.21497
G1 X141.12 Y55.985 E31.25314
G1 X140.113 Y55.437 E31.29123
G1 X139.08 Y54.939 E31.32934
G1 X138.023 Y54.493 E31.36747
G1 X136.945 Y54.102 E31.40558
G1 X135.85 Y53.764 E31.44366
G1 X134.738 Y53.48 E31.4818
G1 X133.614 Y53.253 E31.51991
G1 X132.48 Y53.083 E31.55801
G1 X131.339 Y52.968 E31.59612
G1 X130.193 Y52.911 E31.63425
G1 X129.047 Y52.911 E31.67234
G1 X127.901 Y52.968 E31.71047
G1 X126.76 Y53.083 E31.74858
G1 X125.626 Y53.253 E31.78668
G1 X124.502 Y53.48 E31.82479
G1 X123.39 Y53.764 E31.86293
G1 X122.295 Y54.102 E31.90101
G1 X121.217 Y54.493 E31.93912
G1 X120.16 Y54.939 E31.97725
G1 X119.127 Y55.437 E32.01536
G1 X118.12 Y55.985 E32.05346
G1 X117.14 Y56.584 E32.09163
G1 X116.194 Y57.23 E32.12969
G1 X115.279 Y57.921 E32.1678
G0 F2625 X115.217 Y57.843
G0 X117.812 Y56.141
G0 X144.301 Y41.225
G0 X144.34 Y41.316
G1 F900 X143.934 Y41.531 E32.18306
G1 X143.565 Y41.807 E32.19838
G1 X143.244 Y42.141 E32.21377
G1 X142.982 Y42.522 E32.22914
G1 X142.785 Y42.938 E32.24443
G1 X142.656 Y43.381 E32.25977
G1 X142.6 Y43.841 E32.27517
G1 X142.618 Y44.302 E32.2905
G1 X142.711 Y44.754 E32.30583
G1 X142.874 Y45.186 E32.32118
G1 X143.106 Y45.586 E32.33655
G1 X143.397 Y45.943 E32.35185
G1 X143.743 Y46.25 E32.36722
G1 X144.133 Y46.496 E32.38255
G1 X144.559 Y46.678 E32.39794
G1 X145.006 Y46.788 E32.41324
G1 X145.467 Y46.826 E32.42861
G1 X145.928 Y46.788 E32.44398
G1 X146.375 Y46.678 E32.45928
G1 X146.801 Y46.496 E32.47468
G1 X147.191 Y46.25 E32.49
G1 X147.537 Y45.943 E32.50537
G1 X147.828 Y45.586 E32.52068
G1 X148.06 Y45.186 E32.53604
G1 X148.223 Y44.754 E32.55139
G1 X148.316 Y44.302 E32.56672
G1 X148.334 Y43.841 E32.58206
G1 X148.278 Y43.381 E32.59745
G1 X148.149 Y42.938 E32.61279
G1 X147.952 Y42.522 E32.62808
G1 X147.69 Y42.141 E32.64345
G1 X147.369 Y41.807 E32.65884
G1 X147 Y41.531 E32.67416
G1 X146.594 Y41.316 E32.68943
G1 X146.153 Y41.169 E32.70487
G1 X145.697 Y41.096 E32.72022
G1 X145.237 Y41.096 E32.73551
G1 X144.781 Y41.169 E32.75085
G1 X144.34 Y41.316 E32.7663
G0 F2625 X144.301 Y41.225
G0 X145.234 Y41.057
G0 X235.137 Y46.871
G0 X235.209 Y46.802
G1 F900 X235.555 Y47.106 E32.78161
G1 X235.945 Y47.354 E32.79697
G1 X236.371 Y47.535 E32.81235
G1 X236.819 Y47.646 E32.82769
G1 X237.279 Y47.683 E32.84302
G1 X237.74 Y47.646 E32.85839
G1 X238.188 Y47.535 E32.87373
G1 X238.614 Y47.354 E32.88911
G1 X239.003 Y47.106 E32.90444
G1 X239.349 Y46.802 E32.91975
G1 X239.64 Y46.444 E32.93508
G1 X239.872 Y46.045 E32.95042
G1 X240.036 Y45.611 E32.96584
G1 X240.128 Y45.158 E32.9812
G1 X240.146 Y44.698 E32.9965
G1 X240.091 Y44.24 E33.01183
G1 X239.963 Y43.795 E33.02721
G1 X239.763 Y43.378 E33.04258
G1 X239.503 Y42.999 E33.05786
G1 X239.182 Y42.664 E33.07327
G1 X238.813 Y42.388 E33.08859
G1 X238.404 Y42.172 E33.10396
G1 X237.966 Y42.027 E33.11929
G1 X237.509 Y41.953 E33.13468
G1 X237.049 Y41.953 E33.14996
G1 X236.592 Y42.027 E33.16535
G1 X236.154 Y42.173 E33.18069
G1 X235.746 Y42.388 E33.19602
G1 X235.377 Y42.664 E33.21133
G1 X235.055 Y42.999 E33.22677
G1 X234.794 Y43.38 E33.24212
G1 X234.597 Y43.795 E33.25739
G1 X234.468 Y44.239 E33.27275
G1 X234.412 Y44.698 E33.28812
G1 X234.431 Y45.159 E33.30345
G1 X234.523 Y45.611 E33.31878
G1 X234.687 Y46.043 E33.33413
G1 X234.917 Y46.442 E33.34944
G1 X235.209 Y46.802 E33.36484
G0 F2625 X235.137 Y46.871
G0 X236.229 Y138.615
G0 X236.295 Y138.689
G1 F900 X235.976 Y139.022 E33.38017
G1 X235.713 Y139.402 E33.39553
G1 X235.515 Y139.82 E33.4109
G1 X235.386 Y140.263 E33.42623
G1 X235.33 Y140.723 E33.44163
G1 X235.349 Y141.184 E33.45696
G1 X235.441 Y141.636 E33.47229
G1 X235.605 Y142.068 E33.48765
G1 X235.836 Y142.468 E33.503
G1 X236.128 Y142.825 E33.51832
G1 X236.474 Y143.132 E33.5337
G1 X236.864 Y143.378 E33.54902
G1 X237.289 Y143.56 E33.56438
G1 X237.737 Y143.67 E33.57971
G1 X238.197 Y143.708 E33.59505
G1 X238.658 Y143.67 E33.61042
G1 X239.106 Y143.56 E33.62575
G1 X239.531 Y143.378 E33.64112
G1 X239.921 Y143.132 E33.65644
G1 X240.267 Y142.825 E33.67181
G1 X240.559 Y142.468 E33.68714
G1 X240.79 Y142.068 E33.70249
G1 X240.954 Y141.636 E33.71785
G1 X241.046 Y141.184 E33.73318
G1 X241.065 Y140.723 E33.74851
G1 X241.009 Y140.263 E33.76391
G1 X240.88 Y139.82 E33.77924
G1 X240.682 Y139.402 E33.79461
G1 X240.419 Y139.022 E33.80997
G1 X240.1 Y138.689 E33.82529
G1 X239.731 Y138.413 E33.84061
G1 X239.323 Y138.198 E33.85593
G1 X238.883 Y138.051 E33.87135
G1 X238.428 Y137.978 E33.88666
G1 X237.967 Y137.978 E33.90198
G1 X237.512 Y138.051 E33.9173
G1 X237.072 Y138.198 E33.93271
G1 X236.664 Y138.413 E33.94804
G1 X236.295 Y138.689 E33.96335
G0 F2625 X236.229 Y138.615
G0 X235.679 Y139.382
G0 X235.347 Y140.255
G0 X235.327 Y140.783
G0 X238.035 Y226.779
G0 X238.012 Y226.876
G1 F900 X237.556 Y226.803 E33.9787
G1 X237.095 Y226.803 E33.99402
G1 X236.64 Y226.876 E34.00933
G1 X236.2 Y227.023 E34.02475
G1 X235.792 Y227.237 E34.04006
G1 X235.422 Y227.514 E34.05542
G1 X235.102 Y227.848 E34.07079
G1 X234.84 Y228.229 E34.08616
G1 X234.643 Y228.645 E34.10146
G1 X234.514 Y229.088 E34.11679
G1 X234.458 Y229.547 E34.13216
G1 X234.477 Y230.009 E34.14752
G1 X234.569 Y230.461 E34.16285
G1 X234.733 Y230.893 E34.17821
G1 X234.963 Y231.292 E34.19351
G1 X235.255 Y231.65 E34.20886
G1 X235.601 Y231.957 E34.22424
G1 X235.991 Y232.203 E34.23956
G1 X236.417 Y232.385 E34.25495
G1 X236.865 Y232.495 E34.27028
G1 X237.325 Y232.533 E34.28562
G1 X237.786 Y232.495 E34.30099
G1 X238.234 Y232.385 E34.31632
G1 X238.659 Y232.203 E34.33169
G1 X239.049 Y231.957 E34.34701
G1 X239.395 Y231.65 E34.36238
G1 X239.687 Y231.293 E34.37771
G1 X239.918 Y230.893 E34.39306
G1 X240.082 Y230.461 E34.40842
G1 X240.174 Y230.009 E34.42375
G1 X240.193 Y229.547 E34.43911
G1 X240.136 Y229.089 E34.45445
G1 X240.009 Y228.646 E34.46976
G1 X239.81 Y228.227 E34.48518
G1 X239.548 Y227.848 E34.50049
G1 X239.229 Y227.515 E34.51582
G1 X238.859 Y227.237 E34.53119
G1 X238.45 Y227.023 E34.54653
G1 X238.012 Y226.876 E34.56189
G0 F2625 X238.035 Y226.779
G0 X238.88 Y227.204
G0 X239.578 Y227.823
G0 X239.956 Y228.478
G0 X242.21 Y234.935
G0 X242.28 Y235.005
G1 F900 X47.72 Y235.005 E41.0275
G1 X47.72 Y39.995 E47.50807
G1 X242.28 Y39.995 E53.97369
G1 X242.28 Y235.005 E60.45426
G0 F2625 X242.21 Y234.935
G0 X144.853 Y227.768
G0 X143.949 Y227.991
G0 X143.159 Y228.491
G0 X142.977 Y228.68
G0 X142.311 Y229.615
G0 X142.404 Y229.65
G1 F900 X142.277 Y230.094 E60.4696
G1 X142.22 Y230.552 E60.48494
G1 X142.239 Y231.013 E60.50027
G1 X142.331 Y231.465 E60.5156
G1 X142.495 Y231.897 E60.53096
G1 X142.726 Y232.298 E60.54634
G1 X143.018 Y232.655 E60.56166
G1 X143.364 Y232.962 E60.57704
G1 X143.756 Y233.208 E60.59242
G1 X144.179 Y233.389 E60.60771
G1 X144.627 Y233.5 E60.62304
G1 X145.088 Y233.537 E60.63841
G1 X145.548 Y233.5 E60.65375
G1 X145.996 Y233.389 E60.66909
G1 X146.421 Y233.208 E60.68444
G1 X146.811 Y232.962 E60.69976
G1 X147.158 Y232.655 E60.71516
G1 X147.45 Y232.296 E60.73054
G1 X147.68 Y231.897 E60.74584
G1 X147.844 Y231.465 E60.7612
G1 X147.936 Y231.013 E60.77653
G1 X147.955 Y230.552 E60.79186
G1 X147.899 Y230.093 E60.80723
G1 X147.77 Y229.65 E60.82256
G1 X147.573 Y229.234 E60.83785
G1 X147.311 Y228.852 E60.85325
G1 X146.99 Y228.519 E60.86862
G1 X146.621 Y228.242 E60.88395
G1 X146.212 Y228.027 E60.89931
G1 X145.774 Y227.882 E60.91464
G1 X145.319 Y227.807 E60.92996
G1 X144.856 Y227.807 E60.94535
G1 X144.401 Y227.882 E60.96068
G1 X143.964 Y228.027 E60.97598
G1 X143.554 Y228.242 E60.99136
G1 X143.185 Y228.52 E61.00671
G1 X142.865 Y228.852 E61.02204
G1 X142.603 Y229.233 E61.0374
G1 X142.404 Y229.65 E61.05276
G0 F2625 X142.311 Y229.615
G0 X121.203 Y221.858
G0 X119.109 Y220.913
G0 X117.12 Y219.763
G0 X115.255 Y218.424
G0 X113.533 Y216.903
G0 X111.971 Y215.22
G0 X110.583 Y213.389
G0 X109.386 Y211.429
G0 X108.39 Y209.359
G0 X107.604 Y207.2
G0 X107.037 Y204.975
G0 X106.695 Y202.703
G0 X106.58 Y200.41
G0 X106.695 Y198.117
G0 X107.037 Y195.845
G0 X107.604 Y193.62
G0 X108.807 Y190.387
G0 X108.897 Y190.43
G1 F900 X108.426 Y191.476 E61.09088
G1 X108.007 Y192.544 E61.12901
G1 X107.642 Y193.631 E61.16711
G1 X107.331 Y194.734 E61.2052
G1 X107.076 Y195.852 E61.2433
G1 X106.877 Y196.983 E61.28147
G1 X106.734 Y198.12 E61.31955
G1 X106.648 Y199.263 E61.35764
G1 X106.62 Y200.41 E61.39577
G1 X106.648 Y201.557 E61.4339
G1 X106.734 Y202.7 E61.47199
G1 X106.877 Y203.837 E61.51007
G1 X107.076 Y204.968 E61.54823
G1 X107.331 Y206.086 E61.58634
G1 X107.642 Y207.189 E61.62443
G1 X108.007 Y208.276 E61.66253
G1 X108.426 Y209.344 E61.70066
G1 X108.897 Y210.39 E61.73878
G1 X109.421 Y211.41 E61.77689
G1 X109.994 Y212.403 E61.81499
G1 X110.616 Y213.367 E61.85311
G1 X111.286 Y214.298 E61.89123
G1 X112.001 Y215.195 E61.92935
G1 X112.76 Y216.054 E61.96744
G1 X113.56 Y216.875 E62.00554
G1 X114.401 Y217.655 E62.04365
G1 X115.279 Y218.393 E62.08177
G1 X116.194 Y219.085 E62.11989
G1 X117.141 Y219.73 E62.15797
G1 X118.12 Y220.329 E62.19611
G1 X119.127 Y220.878 E62.23423
G1 X120.16 Y221.375 E62.27232
G1 X121.217 Y221.821 E62.31045
G1 X122.295 Y222.212 E62.34856
G1 X123.39 Y222.55 E62.38664
G1 X124.502 Y222.834 E62.42478
G1 X125.626 Y223.061 E62.46289
G1 X126.76 Y223.231 E62.50099
G1 X127.901 Y223.346 E62.5391
G1 X129.047 Y223.403 E62.57723
G1 X130.193 Y223.403 E62.61532
G1 X131.339 Y223.346 E62.65345
G1 X132.48 Y223.231 E62.69156
