;Generated by Cura LulzBot Edition GCodeWriter Version: 3.2.32
;FLAVOR:Marlin
;TIME:49800
;Filament used: 34.3663m
;Layer height: 0.22
;Generated with Cura_SteamEngine 3.2.32
M82 ;absolute extrusion mode
;This G-Code has been generated specifically for the LulzBot TAZ 5 with standard extruder
M75			 ; start GLCD timer
M140 S110    ; start bed heating up
G21                      ; set units to Millimetres
G90                      ; absolute positioning
M107                     ; disable fans
M82                      ; set extruder to absolute mode
G28 X0 Y0                ; home X and Y
G28 Z0                   ; home Z
G1 Z15.0 F175 ; move extruder up
M117 Heating...                     ; progress indicator message on LCD
M109 R240  ; wait for extruder to reach printing temp
M190 S110    ; wait for bed to reach printing temp
G92 E0                   ; set extruder position to 0
G1 F200 E0               ; prime the nozzle with filament
G92 E0                   ; re-set extruder position to 0
G1 F175       ; set travel speed
M203 X192 Y208 Z3        ; set limits on travel speed
M117 TAZ 5 Printing...   ; progress indicator message on LCD

M221 S100
;LAYER_COUNT:150
;LAYER:0
M107
G0 F2625 X44.349 Y37.345 Z0.424
;TYPE:SKIRT
G1 F900 X44.679 Y36.958 E0.0169
G1 X45.066 Y36.626 E0.03385
G1 X45.501 Y36.36 E0.05079
G1 X45.971 Y36.164 E0.06771
G1 X46.466 Y36.045 E0.08463
G1 X46.979 Y36.004 E0.10173
G1 X243.021 Y36.005 E6.6166
G1 X243.529 Y36.045 E6.63353
G1 X244.024 Y36.164 E6.65045
G1 X244.495 Y36.359 E6.66739
G1 X244.93 Y36.625 E6.68434
G1 X245.317 Y36.955 E6.70124
G1 X245.649 Y37.342 E6.71818
G1 X245.915 Y37.777 E6.73513
G1 X246.111 Y38.247 E6.75205
G1 X246.23 Y38.742 E6.76897
G1 X246.271 Y39.255 E6.78607
G1 X246.271 Y235.746 E13.31586
G1 X246.231 Y236.254 E13.33279
G1 X246.112 Y236.749 E13.34971
G1 X245.917 Y237.22 E13.36665
G1 X245.651 Y237.655 E13.38359
G1 X245.321 Y238.042 E13.4005
G1 X244.934 Y238.374 E13.41744
G1 X244.499 Y238.64 E13.43439
G1 X244.029 Y238.836 E13.45131
G1 X243.534 Y238.955 E13.46823
G1 X243.021 Y238.996 E13.48533
G1 X46.979 Y238.996 E20.00019
G1 X46.471 Y238.956 E20.01713
G1 X45.976 Y238.837 E20.03405
G1 X45.505 Y238.642 E20.05099
G1 X45.07 Y238.376 E20.06793
G1 X44.683 Y238.046 E20.08483
G1 X44.351 Y237.659 E20.10178
G1 X44.085 Y237.224 E20.11872
G1 X43.889 Y236.754 E20.13564
G1 X43.77 Y236.259 E20.15256
G1 X43.729 Y235.746 E20.16967
G1 X43.729 Y39.254 E26.69948
G1 X43.769 Y38.746 E26.71642
G1 X43.888 Y38.251 E26.73334
G1 X44.083 Y37.78 E26.75028
G1 X44.349 Y37.345 E26.76722
G1 F600 E25.76722
G0 F2625 X46.305 Y40.009
G0 X47.734 Y40.009
G0 X242.21 Y234.935
G0 X242.28 Y235.005
;TYPE:WALL-INNER
G1 F600 E26.76722
G1 F900 X47.72 Y235.005 E33.23284
G1 X47.72 Y39.995 E39.71341
G1 X242.28 Y39.995 E46.17902
G1 X242.28 Y235.005 E52.65959
G0 F2625 X242.78 Y235.505
;TYPE:WALL-OUTER
G1 F900 X47.22 Y235.505 E59.15844
G1 X47.22 Y39.495 E65.67224
G1 X242.78 Y39.495 E72.17108
G1 X242.78 Y235.505 E78.68488
G0 F2625 X242.53 Y235.505
G0 X242.21 Y234.935
G0 X241.79 Y234.515
;TYPE:SKIN
G1 F900 X48.21 Y234.515 E85.11793
G1 X48.21 Y40.485 E91.56593
G1 X241.79 Y40.485 E97.99898
G1 X241.79 Y234.515 E104.44698
G0 F2625 X49.027 Y234.289
G1 F900 X48.434 Y233.696 E104.47485
G0 F2625 X48.434 Y232.989
G1 F900 X49.734 Y234.289 E104.53595
G1 X49.822 Y234.377
G0 F2625 X50.441 Y234.289
G1 F900 X48.434 Y232.282 E104.63027
G1 X48.346 Y232.194
G0 F2625 X48.434 Y231.575
G1 F900 X51.148 Y234.289 E104.75782
G1 X51.236 Y234.377
G0 F2625 X51.855 Y234.289
G1 F900 X48.434 Y230.868 E104.9186
G1 X48.346 Y230.78
G0 F2625 X48.434 Y230.161
G1 F900 X52.562 Y234.289 E105.1126
G1 X52.65 Y234.377
G0 F2625 X53.269 Y234.289
G1 F900 X48.434 Y229.454 E105.33983
G1 X48.346 Y229.366
G0 F2625 X48.434 Y228.746
G1 F900 X53.976 Y234.289 E105.60032
G1 X54.064 Y234.377
G0 F2625 X54.684 Y234.289
G1 F900 X48.434 Y228.039 E105.89405
G1 X48.346 Y227.951
G0 F2625 X48.434 Y227.332
G1 F900 X55.391 Y234.289 E106.22101
G1 X55.479 Y234.377
G0 F2625 X56.098 Y234.289
G1 F900 X48.434 Y226.625 E106.58119
G1 X48.346 Y226.537
G0 F2625 X48.434 Y225.918
G1 F900 X56.805 Y234.289 E106.97461
G1 X56.893 Y234.377
G0 F2625 X57.512 Y234.289
G1 F900 X48.434 Y225.211 E107.40125
G1 X48.346 Y225.123
G0 F2625 X48.434 Y224.504
G1 F900 X58.219 Y234.289 E107.86111
G1 X58.307 Y234.377
G0 F2625 X58.926 Y234.289
G1 F900 X48.434 Y223.797 E108.35421
G1 X48.346 Y223.709
G0 F2625 X48.434 Y223.09
G1 F900 X59.633 Y234.289 E108.88053
G1 X59.721 Y234.377
G0 F2625 X60.34 Y234.289
G1 F900 X48.434 Y222.382 E109.4401
G1 X48.346 Y222.294
G0 F2625 X48.434 Y221.675
G1 F900 X61.048 Y234.289 E110.03292
G1 X61.136 Y234.377
G0 F2625 X61.755 Y234.289
G1 F900 X48.434 Y220.968 E110.65897
G1 X48.346 Y220.88
G0 F2625 X48.434 Y220.261
G1 F900 X62.462 Y234.289 E111.31824
G1 X62.55 Y234.377
G0 F2625 X63.169 Y234.289
G1 F900 X48.434 Y219.554 E112.01075
G1 X48.346 Y219.466
G0 F2625 X48.434 Y218.847
G1 F900 X63.876 Y234.289 E112.73648
G1 X63.964 Y234.377
G0 F2625 X64.583 Y234.289
G1 F900 X48.434 Y218.14 E113.49543
G1 X48.346 Y218.052
G0 F2625 X48.434 Y217.433
G1 F900 X65.29 Y234.289 E114.28762
G1 X65.378 Y234.377
G0 F2625 X65.997 Y234.289
G1 F900 X48.434 Y216.726 E115.11303
G1 X48.346 Y216.638
G0 F2625 X48.434 Y216.019
G1 F900 X66.704 Y234.289 E115.97166
G1 X66.792 Y234.377
G0 F2625 X67.412 Y234.289
G1 F900 X48.434 Y215.311 E116.86358
G1 X48.346 Y215.223
G0 F2625 X48.434 Y214.604
G1 F900 X68.119 Y234.289 E117.78871
G1 X68.207 Y234.377
G0 F2625 X68.826 Y234.289
G1 F900 X48.434 Y213.897 E118.74708
G1 X48.346 Y213.809
G0 F2625 X48.434 Y213.19
G1 F900 X69.533 Y234.289 E119.73867
G1 X69.621 Y234.377
G0 F2625 X70.24 Y234.289
G1 F900 X48.434 Y212.483 E120.76349
G1 X48.346 Y212.395
G0 F2625 X48.434 Y211.776
G1 F900 X70.947 Y234.289 E121.82154
G1 X71.035 Y234.377
G0 F2625 X71.654 Y234.289
G1 F900 X48.434 Y211.069 E122.91281
G1 X48.346 Y210.981
G0 F2625 X48.434 Y210.362
G1 F900 X72.361 Y234.289 E124.03731
G1 X72.449 Y234.377
G0 F2625 X73.068 Y234.289
G1 F900 X48.434 Y209.655 E125.19504
G1 X48.346 Y209.567
G0 F2625 X48.434 Y208.947
G1 F900 X73.775 Y234.289 E126.38601
G1 X73.863 Y234.377
G0 F2625 X74.483 Y234.289
G1 F900 X48.434 Y208.24 E127.61024
G1 X48.346 Y208.152
G0 F2625 X48.434 Y207.533
G1 F900 X75.19 Y234.289 E128.8677
G1 X75.278 Y234.377
G0 F2625 X75.897 Y234.289
G1 F900 X48.434 Y206.826 E130.15838
G1 X48.346 Y206.738
G0 F2625 X48.434 Y206.119
G1 F900 X76.604 Y234.289 E131.48229
G1 X76.692 Y234.377
G0 F2625 X77.311 Y234.289
G1 F900 X48.434 Y205.412 E132.83942
G1 X48.346 Y205.324
G0 F2625 X48.434 Y204.705
G1 F900 X78.018 Y234.289 E134.22979
G1 X78.106 Y234.377
G0 F2625 X78.725 Y234.289
G1 F900 X48.434 Y203.998 E135.65338
G1 X48.346 Y203.91
G0 F2625 X48.434 Y203.291
G1 F900 X79.432 Y234.289 E137.11019
G1 X79.52 Y234.377
G0 F2625 X80.139 Y234.289
G1 F900 X48.434 Y202.583 E138.60026
G1 X48.346 Y202.495
G0 F2625 X48.434 Y201.876
G1 F900 X80.847 Y234.289 E140.12358
G1 X80.935 Y234.377
G0 F2625 X81.554 Y234.289
G1 F900 X48.434 Y201.169 E141.68012
G1 X48.346 Y201.081
G0 F2625 X48.434 Y200.462
G1 F900 X82.261 Y234.289 E143.2699
G1 X82.349 Y234.377
G0 F2625 X82.968 Y234.289
G1 F900 X48.434 Y199.755 E144.89289
G1 X48.346 Y199.667
G0 F2625 X48.434 Y199.048
G1 F900 X83.675 Y234.289 E146.54912
G1 X83.763 Y234.377
G0 F2625 X84.382 Y234.289
G1 F900 X48.434 Y198.341 E148.23857
G1 X48.346 Y198.253
G0 F2625 X48.434 Y197.634
G1 F900 X85.089 Y234.289 E149.96125
G1 X85.177 Y234.377
G0 F2625 X85.796 Y234.289
G1 F900 X48.434 Y196.927 E151.71716
G1 X48.346 Y196.839
G0 F2625 X48.434 Y196.22
G1 F900 X86.503 Y234.289 E153.50629
G1 X86.591 Y234.377
G0 F2625 X87.211 Y234.289
G1 F900 X48.434 Y195.512 E155.3287
G1 X48.346 Y195.424
G0 F2625 X48.434 Y194.805
G1 F900 X87.918 Y234.289 E157.18433
G1 X88.006 Y234.377
G0 F2625 X88.625 Y234.289
G1 F900 X48.434 Y194.098 E159.07319
G1 X48.346 Y194.01
G0 F2625 X48.434 Y193.391
G1 F900 X89.332 Y234.289 E160.99528
G1 X89.42 Y234.377
G0 F2625 X90.039 Y234.289
G1 F900 X48.434 Y192.684 E162.9506
G1 X48.346 Y192.596
G0 F2625 X48.434 Y191.977
G1 F900 X90.746 Y234.289 E164.93914
G1 X90.834 Y234.377
G0 F2625 X91.453 Y234.289
G1 F900 X48.434 Y191.27 E166.96091
G1 X48.346 Y191.182
G0 F2625 X48.434 Y190.563
G1 F900 X92.16 Y234.289 E169.01591
G1 X92.248 Y234.377
G0 F2625 X92.867 Y234.289
G1 F900 X48.434 Y189.856 E171.10413
G1 X48.346 Y189.768
G0 F2625 X48.434 Y189.148
G1 F900 X93.574 Y234.289 E173.2256
G1 X93.662 Y234.377
G0 F2625 X94.282 Y234.289
G1 F900 X48.434 Y188.441 E175.38033
G1 X48.346 Y188.353
G0 F2625 X48.434 Y187.734
G1 F900 X94.989 Y234.289 E177.56828
G1 X95.077 Y234.377
G0 F2625 X95.696 Y234.289
G1 F900 X48.434 Y187.027 E179.78945
G1 X48.346 Y186.939
G0 F2625 X48.434 Y186.32
G1 F900 X96.403 Y234.289 E182.04386
G1 X96.491 Y234.377
G0 F2625 X97.11 Y234.289
G1 F900 X48.434 Y185.613 E184.33149
G1 X48.346 Y185.525
G0 F2625 X48.434 Y184.906
G1 F900 X97.817 Y234.289 E186.65235
G1 X97.905 Y234.377
G0 F2625 X98.524 Y234.289
G1 F900 X48.434 Y184.199 E189.00644
G1 X48.346 Y184.111
G0 F2625 X48.434 Y183.492
G1 F900 X99.231 Y234.289 E191.39375
G1 X99.319 Y234.377
G0 F2625 X99.938 Y234.289
G1 F900 X48.434 Y182.784 E193.81431
G1 X48.346 Y182.696
G0 F2625 X48.434 Y182.077
G1 F900 X100.646 Y234.289 E196.26813
G1 X100.734 Y234.377
G0 F2625 X101.353 Y234.289
G1 F900 X48.434 Y181.37 E198.75517
G1 X48.346 Y181.282
G0 F2625 X48.434 Y180.663
G1 F900 X102.06 Y234.289 E201.27543
G1 X102.148 Y234.377
G0 F2625 X102.767 Y234.289
G1 F900 X48.434 Y179.956 E203.82893
G1 X48.346 Y179.868
G0 F2625 X48.434 Y179.249
G1 F900 X103.474 Y234.289 E206.41565
G1 X103.562 Y234.377
G0 F2625 X104.181 Y234.289
G1 F900 X48.434 Y178.542 E209.0356
G1 X48.346 Y178.454
G0 F2625 X48.434 Y177.835
G1 F900 X104.888 Y234.289 E211.68877
G1 X104.976 Y234.377
G0 F2625 X105.595 Y234.289
G1 F900 X48.434 Y177.128 E214.37518
G1 X48.346 Y177.04
G0 F2625 X48.434 Y176.421
G1 F900 X106.302 Y234.289 E217.09481
G1 X106.39 Y234.377
G0 F2625 X107.01 Y234.289
G1 F900 X48.434 Y175.713 E219.84771
G1 X48.346 Y175.625
G0 F2625 X48.434 Y175.006
G1 F900 X107.717 Y234.289 E222.63384
G1 X107.805 Y234.377
G0 F2625 X108.424 Y234.289
G1 F900 X48.434 Y174.299 E225.4532
G1 X48.346 Y174.211
G0 F2625 X48.434 Y173.592
G1 F900 X109.131 Y234.289 E228.30578
G1 X109.219 Y234.377
G0 F2625 X109.838 Y234.289
G1 F900 X48.434 Y172.885 E231.19159
G1 X48.346 Y172.797
G0 F2625 X48.434 Y172.178
G1 F900 X110.545 Y234.289 E234.11063
G1 X110.633 Y234.377
G0 F2625 X111.252 Y234.289
G1 F900 X48.434 Y171.471 E237.0629
G1 X48.346 Y171.383
G0 F2625 X48.434 Y170.764
G1 F900 X111.959 Y234.289 E240.04839
G1 X112.047 Y234.377
G0 F2625 X112.666 Y234.289
G1 F900 X48.434 Y170.057 E243.06711
G1 X48.346 Y169.969
G0 F2625 X48.434 Y169.349
G1 F900 X113.373 Y234.289 E246.11908
G1 X113.461 Y234.377
G0 F2625 X114.081 Y234.289
G1 F900 X48.434 Y168.642 E249.2043
G1 X48.346 Y168.554
G0 F2625 X48.434 Y167.935
G1 F900 X114.788 Y234.289 E252.32274
G1 X114.876 Y234.377
G0 F2625 X115.495 Y234.289
G1 F900 X48.434 Y167.228 E255.47442
G1 X48.346 Y167.14
G0 F2625 X48.434 Y166.521
G1 F900 X116.202 Y234.289 E258.65932
G1 X116.29 Y234.377
G0 F2625 X116.909 Y234.289
G1 F900 X48.434 Y165.814 E261.87745
G1 X48.346 Y165.726
G0 F2625 X48.434 Y165.107
G1 F900 X117.616 Y234.289 E265.1288
G1 X117.704 Y234.377
G0 F2625 X118.323 Y234.289
G1 F900 X48.434 Y164.4 E268.41338
G1 X48.346 Y164.312
G0 F2625 X48.434 Y163.693
G1 F900 X119.03 Y234.289 E271.73119
G1 X119.118 Y234.377
G0 F2625 X119.737 Y234.289
G1 F900 X48.434 Y162.985 E275.08225
G1 X48.346 Y162.897
G0 F2625 X48.434 Y162.278
G1 F900 X120.445 Y234.289 E278.46656
G1 X120.533 Y234.377
G0 F2625 X121.152 Y234.289
G1 F900 X48.434 Y161.571 E281.8841
G1 X48.346 Y161.483
G0 F2625 X48.434 Y160.864
G1 F900 X121.859 Y234.289 E285.33486
G1 X121.947 Y234.377
G0 F2625 X122.566 Y234.289
G1 F900 X48.434 Y160.157 E288.81885
G1 X48.346 Y160.069
G0 F2625 X48.434 Y159.45
G1 F900 X123.273 Y234.289 E292.33607
G1 X123.361 Y234.377
G0 F2625 X123.98 Y234.289
G1 F900 X48.434 Y158.743 E295.88651
G1 X48.346 Y158.655
G0 F2625 X48.434 Y158.036
G1 F900 X124.687 Y234.289 E299.47019
G1 X124.775 Y234.377
G0 F2625 X125.394 Y234.289
G1 F900 X48.434 Y157.329 E303.08708
G1 X48.346 Y157.241
G0 F2625 X48.434 Y156.622
G1 F900 X126.101 Y234.289 E306.73721
G1 X126.189 Y234.377
G0 F2625 X126.808 Y234.289
G1 F900 X48.434 Y155.914 E310.42059
G1 X48.346 Y155.826
G0 F2625 X48.434 Y155.207
G1 F900 X127.516 Y234.289 E314.13721
G1 X127.604 Y234.377
G0 F2625 X128.223 Y234.289
G1 F900 X48.434 Y154.5 E317.88706
G1 X48.346 Y154.412
G0 F2625 X48.434 Y153.793
G1 F900 X128.93 Y234.289 E321.67015
G1 X129.018 Y234.377
G0 F2625 X129.637 Y234.289
G1 F900 X48.434 Y153.086 E325.48645
G1 X48.346 Y152.998
G0 F2625 X48.434 Y152.379
G1 F900 X130.344 Y234.289 E329.33599
G1 X130.432 Y234.377
G0 F2625 X131.051 Y234.289
G1 F900 X48.434 Y151.672 E333.21875
G1 X48.346 Y151.584
G0 F2625 X48.434 Y150.965
G1 F900 X131.758 Y234.289 E337.13474
G1 X131.846 Y234.377
G0 F2625 X132.465 Y234.289
G1 F900 X48.434 Y150.258 E341.08395
G1 X48.346 Y150.17
G0 F2625 X48.434 Y149.55
G1 F900 X133.172 Y234.289 E345.06642
G1 X133.26 Y234.377
G0 F2625 X133.88 Y234.289
G1 F900 X48.434 Y148.843 E349.08213
G1 X48.346 Y148.755
G0 F2625 X48.434 Y148.136
G1 F900 X134.587 Y234.289 E353.13108
G1 X134.675 Y234.377
G0 F2625 X135.294 Y234.289
G1 F900 X48.434 Y147.429 E357.21325
G1 X48.346 Y147.341
G0 F2625 X48.434 Y146.722
G1 F900 X136.001 Y234.289 E361.32864
G1 X136.089 Y234.377
G0 F2625 X136.708 Y234.289
G1 F900 X48.434 Y146.015 E365.47727
G1 X48.346 Y145.927
G0 F2625 X48.434 Y145.308
G1 F900 X137.415 Y234.289 E369.65912
G1 X137.503 Y234.377
G0 F2625 X138.122 Y234.289
G1 F900 X48.434 Y144.601 E373.8742
G1 X48.346 Y144.513
G0 F2625 X48.434 Y143.894
G1 F900 X138.829 Y234.289 E378.1225
G1 X138.917 Y234.377
G0 F2625 X139.536 Y234.289
G1 F900 X48.434 Y143.187 E382.40403
G1 X48.346 Y143.099
G0 F2625 X48.434 Y142.479
G1 F900 X140.244 Y234.289 E386.71884
G1 X140.332 Y234.377
G0 F2625 X140.951 Y234.289
G1 F900 X48.434 Y141.772 E391.06687
G1 X48.346 Y141.684
G0 F2625 X48.434 Y141.065
G1 F900 X141.658 Y234.289 E395.44813
G1 X141.746 Y234.377
G0 F2625 X142.365 Y234.289
G1 F900 X48.434 Y140.358 E399.86262
G1 X48.346 Y140.27
G0 F2625 X48.434 Y139.651
G1 F900 X143.072 Y234.289 E404.31033
G1 X143.16 Y234.377
G0 F2625 X143.779 Y234.289
G1 F900 X48.434 Y138.944 E408.79127
G1 X48.346 Y138.856
G0 F2625 X48.434 Y138.237
G1 F900 X144.486 Y234.289 E413.30544
G1 X144.574 Y234.377
G0 F2625 X145.193 Y234.289
G1 F900 X48.434 Y137.53 E417.85283
G1 X48.346 Y137.442
G0 F2625 X48.434 Y136.823
G1 F900 X145.9 Y234.289 E422.43345
G1 X145.988 Y234.377
G0 F2625 X146.607 Y234.289
G1 F900 X48.434 Y136.115 E427.04733
G1 X48.346 Y136.027
G0 F2625 X48.434 Y135.408
G1 F900 X147.315 Y234.289 E431.69445
G1 X147.403 Y234.377
G0 F2625 X148.022 Y234.289
G1 F900 X48.434 Y134.701 E436.3748
G1 X48.346 Y134.613
G0 F2625 X48.434 Y133.994
G1 F900 X148.729 Y234.289 E441.08837
G1 X148.817 Y234.377
G0 F2625 X149.436 Y234.289
G1 F900 X48.434 Y133.287 E445.83518
G1 X48.346 Y133.199
G0 F2625 X48.434 Y132.58
G1 F900 X150.143 Y234.289 E450.61521
G1 X150.231 Y234.377
G0 F2625 X150.85 Y234.289
G1 F900 X48.434 Y131.873 E455.42846
G1 X48.346 Y131.785
G0 F2625 X48.434 Y131.166
G1 F900 X151.557 Y234.289 E460.27495
G1 X151.645 Y234.377
G0 F2625 X152.264 Y234.289
G1 F900 X48.434 Y130.459 E465.15466
G1 X48.346 Y130.371
G0 F2625 X48.434 Y129.751
G1 F900 X152.971 Y234.289 E470.06762
G1 X153.059 Y234.377
G0 F2625 X153.679 Y234.289
G1 F900 X48.434 Y129.044 E475.01383
G1 X48.346 Y128.956
G0 F2625 X48.434 Y128.337
G1 F900 X154.386 Y234.289 E479.99327
G1 X154.474 Y234.377
G0 F2625 X155.093 Y234.289
G1 F900 X48.434 Y127.63 E485.00594
G1 X48.346 Y127.542
G0 F2625 X48.434 Y126.923
G1 F900 X155.8 Y234.289 E490.05183
G1 X155.888 Y234.377
G0 F2625 X156.507 Y234.289
G1 F900 X48.434 Y126.216 E495.13095
G1 X48.346 Y126.128
G0 F2625 X48.434 Y125.509
G1 F900 X157.214 Y234.289 E500.2433
G1 X157.302 Y234.377
G0 F2625 X157.921 Y234.289
G1 F900 X48.434 Y124.802 E505.38887
G1 X48.346 Y124.714
G0 F2625 X48.434 Y124.095
G1 F900 X158.628 Y234.289 E510.56767
G1 X158.716 Y234.377
