;Generated by Cura LulzBot Edition GCodeWriter Version: 3.2.32
;FLAVOR:Marlin
;TIME:37524
;Filament used: 24.9015m
;Layer height: 0.22
;Generated with Cura_SteamEngine 3.2.32
M82 ;absolute extrusion mode
;This G-Code has been generated specifically for the LulzBot TAZ 5 with standard extruder
M75			 ; start GLCD timer
M140 S110    ; start bed heating up
G21                      ; set units to Millimetres
G90                      ; absolute positioning
M107                     ; disable fans
M82                      ; set extruder to absolute mode
G28 X0 Y0                ; home X and Y
G28 Z0                   ; home Z
G1 Z15.0 F175 ; move extruder up
M117 Heating...                     ; progress indicator message on LCD
M109 R240  ; wait for extruder to reach printing temp
M190 S110    ; wait for bed to reach printing temp
G92 E0                   ; set extruder position to 0
G1 F200 E0               ; prime the nozzle with filament
G92 E0                   ; re-set extruder position to 0
G1 F175       ; set travel speed
M203 X192 Y208 Z3        ; set limits on travel speed
M117 TAZ 5 Printing...   ; progress indicator message on LCD

M221 S100
;LAYER_COUNT:150
;LAYER:0
M107
G0 F2625 X95.409 Y38.008 Z0.424
;TYPE:SKIRT
G1 F900 X95.64 Y37.554 E0.01693
G1 X95.94 Y37.142 E0.03386
G1 X96.3 Y36.782 E0.05078
G1 X96.712 Y36.482 E0.06772
G1 X97.166 Y36.251 E0.08465
G1 X97.651 Y36.093 E0.1016
G1 X98.154 Y36.013 E0.11853
G1 X98.411 Y36.003 E0.12707
G1 X160.851 Y36.012 E2.20208
G1 X161.359 Y36.052 E2.21901
G1 X161.855 Y36.171 E2.23596
G1 X162.326 Y36.366 E2.2529
G1 X162.76 Y36.632 E2.26982
G1 X163.148 Y36.963 E2.28677
G1 X163.479 Y37.35 E2.30369
G1 X163.624 Y37.566 E2.31234
G1 X165.611 Y40.814 E2.43887
G1 X167.085 Y43.062 E2.5282
G1 X170.299 Y47.531 E2.71113
G1 X173.729 Y51.774 E2.89245
G1 X177.414 Y55.84 E3.07481
G1 X181.317 Y59.682 E3.25681
G1 X185.437 Y63.306 E3.43915
G1 X187.533 Y64.996 E3.52863
G1 X191.944 Y68.255 E3.71088
G1 X196.537 Y71.263 E3.89334
G1 X201.262 Y73.989 E4.07462
G1 X206.154 Y76.453 E4.25665
G1 X211.219 Y78.655 E4.44019
G1 X213.75 Y79.631 E4.53033
G1 X216.274 Y80.52 E4.61926
G1 X221.542 Y82.132 E4.80234
G1 X226.894 Y83.443 E4.98546
G1 X229.538 Y83.975 E5.07508
G1 X232.213 Y84.432 E5.16527
G1 X237.67 Y85.13 E5.34809
G1 X243.25 Y85.524 E5.53399
G1 X243.754 Y85.6 E5.55092
G1 X244.24 Y85.753 E5.56786
G1 X244.696 Y85.981 E5.5848
G1 X245.11 Y86.277 E5.60171
G1 X245.474 Y86.634 E5.61866
G1 X245.777 Y87.043 E5.63557
G1 X246.012 Y87.495 E5.6525
G1 X246.174 Y87.978 E5.66943
G1 X246.258 Y88.481 E5.68638
G1 X246.271 Y88.766 E5.69586
G1 X246.272 Y185.747 E8.91873
G1 X246.232 Y186.255 E8.93566
G1 X246.113 Y186.75 E8.95258
G1 X245.918 Y187.221 E8.96952
G1 X245.652 Y187.656 E8.98647
G1 X245.322 Y188.043 E9.00337
G1 X244.935 Y188.375 E9.02031
G1 X244.5 Y188.641 E9.03726
G1 X244.03 Y188.837 E9.05418
G1 X243.535 Y188.956 E9.0711
G1 X243.253 Y188.989 E9.08053
G1 X240.362 Y189.195 E9.17685
G1 X234.906 Y189.822 E9.35936
G1 X229.483 Y190.758 E9.54224
G1 X226.875 Y191.321 E9.63091
G1 X221.55 Y192.715 E9.81383
G1 X216.325 Y194.402 E9.99629
G1 X211.236 Y196.37 E10.17762
G1 X206.246 Y198.631 E10.35967
G1 X201.397 Y201.167 E10.54152
G1 X196.705 Y203.972 E10.72318
G1 X192.163 Y207.049 E10.9055
G1 X187.814 Y210.366 E11.08726
G1 X183.666 Y213.92 E11.26879
G1 X179.709 Y217.717 E11.45103
G1 X177.831 Y219.678 E11.54127
G1 X174.219 Y223.789 E11.72312
G1 X170.834 Y228.111 E11.90556
G1 X167.707 Y232.604 E12.08747
G1 X164.731 Y237.448 E12.2764
G1 X164.431 Y237.86 E12.29334
G1 X164.07 Y238.22 E12.31028
G1 X163.658 Y238.519 E12.3272
G1 X163.204 Y238.75 E12.34413
G1 X162.719 Y238.908 E12.36108
G1 X161.962 Y238.997 E12.38641
G1 X98.41 Y238.996 E14.49837
G1 X97.902 Y238.956 E14.5153
G1 X97.407 Y238.837 E14.53222
G1 X96.936 Y238.642 E14.54916
G1 X96.501 Y238.376 E14.56611
G1 X96.114 Y238.046 E14.58301
G1 X95.782 Y237.659 E14.59995
G1 X95.516 Y237.224 E14.6169
G1 X95.32 Y236.754 E14.63382
G1 X95.225 Y236.392 E14.64626
G1 X94.958 Y235.075 E14.69091
G1 X94.155 Y231.433 E14.81485
G1 X93.478 Y228.781 E14.90581
G1 X91.893 Y223.528 E15.08815
G1 X90.024 Y218.402 E15.26947
G1 X87.854 Y213.354 E15.45207
G1 X85.419 Y208.474 E15.6333
G1 X82.697 Y203.71 E15.81564
G1 X79.713 Y199.115 E15.99772
G1 X76.491 Y194.718 E16.17887
G1 X73.008 Y190.489 E16.36094
G1 X69.285 Y186.456 E16.54334
G1 X65.366 Y182.666 E16.72451
G1 X61.212 Y179.08 E16.90688
G1 X56.88 Y175.749 E17.08848
G1 X52.366 Y172.668 E17.2701
G1 X47.642 Y169.821 E17.45339
G1 X45.412 Y168.594 E17.53798
G1 X44.986 Y168.314 E17.55492
G1 X44.609 Y167.971 E17.57186
G1 X44.291 Y167.574 E17.58876
G1 X44.038 Y167.131 E17.60571
G1 X43.858 Y166.655 E17.62262
G1 X43.755 Y166.156 E17.63956
G1 X43.729 Y165.747 E17.65318
G1 X43.73 Y107.761 E19.58017
G1 X43.77 Y107.253 E19.5971
G1 X43.889 Y106.758 E19.61402
G1 X44.084 Y106.287 E19.63096
G1 X44.35 Y105.852 E19.6479
G1 X44.68 Y105.465 E19.66481
G1 X45.067 Y105.133 E19.68175
G1 X45.43 Y104.904 E19.69601
G1 X47.653 Y103.698 E19.78006
G1 X52.369 Y100.881 E19.96261
G1 X56.897 Y97.815 E20.14434
G1 X61.253 Y94.494 E20.32637
G1 X65.401 Y90.94 E20.50789
G1 X69.36 Y87.143 E20.69019
G1 X71.226 Y85.194 E20.77985
G1 X74.86 Y81.061 E20.96274
G1 X78.236 Y76.754 E21.1446
G1 X81.362 Y72.261 E21.3265
G1 X84.226 Y67.606 E21.50813
G1 X86.825 Y62.791 E21.68996
G1 X89.168 Y57.793 E21.8734
G1 X90.183 Y55.366 E21.96082
G1 X92.097 Y50.178 E22.14459
G1 X93.699 Y44.944 E22.32649
G1 X95.251 Y38.493 E22.54699
G1 X95.409 Y38.008 E22.56394
G1 F600 E21.56394
G0 F2625 X97.736 Y40.008
G0 X99.165 Y40.008
G0 X160.032 Y89.576
G0 X160.102 Y89.506
;TYPE:WALL-INNER
G1 F600 E22.56394
G1 F900 X242.28 Y89.506 E25.29488
G1 X242.28 Y185.006 E28.46853
G1 X161.22 Y185.006 E31.16231
G1 X161.22 Y235.006 E32.82391
G1 X99.151 Y235.006 E34.88659
G1 X99.151 Y165.006 E37.21283
G1 X47.72 Y165.006 E38.92198
G1 X47.72 Y108.506 E40.79959
G1 X99.151 Y108.506 E42.50874
G1 X99.151 Y39.994 E44.78553
G1 X160.102 Y39.994 E46.81106
G1 X160.102 Y89.506 E48.45644
G0 F2625 X160.602 Y89.006
;TYPE:WALL-OUTER
G1 F900 X242.78 Y89.006 E51.18738
G1 X242.78 Y185.506 E54.39426
G1 X161.72 Y185.506 E57.08805
G1 X161.72 Y235.506 E58.74965
G1 X98.651 Y235.506 E60.84555
G1 X98.651 Y165.506 E63.17179
G1 X47.22 Y165.506 E64.88095
G1 X47.22 Y108.006 E66.79179
G1 X98.651 Y108.006 E68.50094
G1 X98.651 Y39.494 E70.77773
G1 X160.602 Y39.494 E72.83648
G1 X160.602 Y89.006 E74.48187
G0 F2625 X160.852 Y89.006
G0 X160.852 Y89.606
G0 X159.612 Y89.996
;TYPE:SKIN
G1 F900 X241.79 Y89.996 E77.2128
G1 X241.79 Y184.516 E80.35389
G1 X160.73 Y184.516 E83.04768
G1 X160.73 Y234.516 E84.70927
G1 X99.641 Y234.516 E86.73938
G1 X99.641 Y164.516 E89.06562
G1 X48.21 Y164.516 E90.77478
G1 X48.21 Y108.996 E92.61982
G1 X99.641 Y108.996 E94.32897
G1 X99.641 Y40.484 E96.60576
G1 X159.612 Y40.484 E98.59872
G1 X159.612 Y89.996 E100.2441
G0 F2625 X241.564 Y90.95
G1 F900 X240.834 Y90.221 E100.27838
G1 X240.746 Y90.133
G0 F2625 X240.127 Y90.221
G1 F900 X241.564 Y91.658 E100.34592
G1 X241.652 Y91.746
G0 F2625 X241.564 Y92.365
G1 F900 X239.42 Y90.221 E100.44668
G1 X239.332 Y90.133
G0 F2625 X238.713 Y90.221
G1 F900 X241.564 Y93.072 E100.58067
G1 X241.652 Y93.16
G0 F2625 X241.564 Y93.779
G1 F900 X238.006 Y90.221 E100.74788
G1 X237.918 Y90.133
G0 F2625 X237.299 Y90.221
G1 F900 X241.564 Y94.486 E100.94833
G1 X241.652 Y94.574
G0 F2625 X241.564 Y95.193
G1 F900 X236.592 Y90.221 E101.182
G1 X236.504 Y90.133
G0 F2625 X235.885 Y90.221
G1 F900 X241.564 Y95.9 E101.44889
G1 X241.652 Y95.988
G0 F2625 X241.564 Y96.607
G1 F900 X235.178 Y90.221 E101.74902
G1 X235.09 Y90.133
G0 F2625 X234.47 Y90.221
G1 F900 X241.564 Y97.314 E102.08239
G1 X241.652 Y97.402
G0 F2625 X241.564 Y98.021
G1 F900 X233.763 Y90.221 E102.44899
G1 X233.675 Y90.133
G0 F2625 X233.056 Y90.221
G1 F900 X241.564 Y98.729 E102.84884
G1 X241.652 Y98.817
G0 F2625 X241.564 Y99.436
G1 F900 X232.349 Y90.221 E103.28192
G1 X232.261 Y90.133
G0 F2625 X231.642 Y90.221
G1 F900 X241.564 Y100.143 E103.74823
G1 X241.652 Y100.231
G0 F2625 X241.564 Y100.85
G1 F900 X230.935 Y90.221 E104.24776
G1 X230.847 Y90.133
G0 F2625 X230.228 Y90.221
G1 F900 X241.564 Y101.557 E104.78052
G1 X241.652 Y101.645
G0 F2625 X241.564 Y102.264
G1 F900 X229.521 Y90.221 E105.3465
G1 X229.433 Y90.133
G0 F2625 X228.814 Y90.221
G1 F900 X241.564 Y102.971 E105.94572
G1 X241.652 Y103.059
G0 F2625 X241.564 Y103.678
G1 F900 X228.106 Y90.221 E106.57818
G1 X228.018 Y90.133
G0 F2625 X227.399 Y90.221
G1 F900 X241.564 Y104.385 E107.24387
G1 X241.652 Y104.473
G0 F2625 X241.564 Y105.093
G1 F900 X226.692 Y90.221 E107.94281
G1 X226.604 Y90.133
G0 F2625 X225.985 Y90.221
G1 F900 X241.564 Y105.8 E108.67498
G1 X241.652 Y105.888
G0 F2625 X241.564 Y106.507
G1 F900 X225.278 Y90.221 E109.44038
G1 X225.19 Y90.133
G0 F2625 X224.571 Y90.221
G1 F900 X241.564 Y107.214 E110.239
G1 X241.652 Y107.302
G0 F2625 X241.564 Y107.921
G1 F900 X223.864 Y90.221 E111.07085
G1 X223.776 Y90.133
G0 F2625 X223.157 Y90.221
G1 F900 X241.564 Y108.628 E111.93592
G1 X241.652 Y108.716
G0 F2625 X241.564 Y109.335
G1 F900 X222.45 Y90.221 E112.83423
G1 X222.362 Y90.133
G0 F2625 X221.743 Y90.221
G1 F900 X241.564 Y110.042 E113.76576
G1 X241.652 Y110.13
G0 F2625 X241.564 Y110.749
G1 F900 X221.035 Y90.221 E114.73054
G1 X220.947 Y90.133
G0 F2625 X220.328 Y90.221
G1 F900 X241.564 Y111.456 E115.72854
G1 X241.652 Y111.544
G0 F2625 X241.564 Y112.164
G1 F900 X219.621 Y90.221 E116.7598
G1 X219.533 Y90.133
G0 F2625 X218.914 Y90.221
G1 F900 X241.564 Y112.871 E117.82429
G1 X241.652 Y112.959
G0 F2625 X241.564 Y113.578
G1 F900 X218.207 Y90.221 E118.922
G1 X218.119 Y90.133
G0 F2625 X217.5 Y90.221
G1 F900 X241.564 Y114.285 E120.05294
G1 X241.652 Y114.373
G0 F2625 X241.564 Y114.992
G1 F900 X216.793 Y90.221 E121.2171
G1 X216.705 Y90.133
G0 F2625 X216.086 Y90.221
G1 F900 X241.564 Y115.699 E122.4145
G1 X241.652 Y115.787
G0 F2625 X241.564 Y116.406
G1 F900 X215.379 Y90.221 E123.64512
G1 X215.291 Y90.133
G0 F2625 X214.671 Y90.221
G1 F900 X241.564 Y117.113 E124.90899
G1 X241.652 Y117.201
G0 F2625 X241.564 Y117.82
G1 F900 X213.964 Y90.221 E126.20608
G1 X213.876 Y90.133
G0 F2625 X213.257 Y90.221
G1 F900 X241.564 Y118.528 E127.53643
G1 X241.652 Y118.616
G0 F2625 X241.564 Y119.235
G1 F900 X212.55 Y90.221 E128.9
G1 X212.462 Y90.133
G0 F2625 X211.843 Y90.221
G1 F900 X241.564 Y119.942 E130.29681
G1 X241.652 Y120.03
G0 F2625 X241.564 Y120.649
G1 F900 X211.136 Y90.221 E131.72683
G1 X211.048 Y90.133
G0 F2625 X210.429 Y90.221
G1 F900 X241.564 Y121.356 E133.19009
G1 X241.652 Y121.444
G0 F2625 X241.564 Y122.063
G1 F900 X209.722 Y90.221 E134.68657
G1 X209.634 Y90.133
G0 F2625 X209.015 Y90.221
G1 F900 X241.564 Y122.77 E136.21628
G1 X241.652 Y122.858
G0 F2625 X241.564 Y123.477
G1 F900 X208.308 Y90.221 E137.77922
G1 X208.22 Y90.133
G0 F2625 X207.6 Y90.221
G1 F900 X241.564 Y124.184 E139.3754
G1 X241.652 Y124.272
G0 F2625 X241.564 Y124.892
G1 F900 X206.893 Y90.221 E141.00484
G1 X206.805 Y90.133
G0 F2625 X206.186 Y90.221
G1 F900 X241.564 Y125.599 E142.66751
G1 X241.652 Y125.687
G0 F2625 X241.564 Y126.306
G1 F900 X205.479 Y90.221 E144.3634
G1 X205.391 Y90.133
G0 F2625 X204.772 Y90.221
G1 F900 X241.564 Y127.013 E146.09251
G1 X241.652 Y127.101
G0 F2625 X241.564 Y127.72
G1 F900 X204.065 Y90.221 E147.85486
G1 X203.977 Y90.133
G0 F2625 X203.358 Y90.221
G1 F900 X241.564 Y128.427 E149.65043
G1 X241.652 Y128.515
G0 F2625 X241.564 Y129.134
G1 F900 X202.651 Y90.221 E151.47923
G1 X202.563 Y90.133
G0 F2625 X201.944 Y90.221
G1 F900 X241.564 Y129.841 E153.34126
G1 X241.652 Y129.929
G0 F2625 X241.564 Y130.548
G1 F900 X201.236 Y90.221 E155.23653
G1 X201.148 Y90.133
G0 F2625 X200.529 Y90.221
G1 F900 X241.564 Y131.255 E157.16504
G1 X241.652 Y131.343
G0 F2625 X241.564 Y131.963
G1 F900 X199.822 Y90.221 E159.12679
G1 X199.734 Y90.133
G0 F2625 X199.115 Y90.221
G1 F900 X241.564 Y132.67 E161.12177
G1 X241.652 Y132.758
G0 F2625 X241.564 Y133.377
G1 F900 X198.408 Y90.221 E163.14998
G1 X198.32 Y90.133
G0 F2625 X197.701 Y90.221
G1 F900 X241.564 Y134.084 E165.21141
G1 X241.652 Y134.172
G0 F2625 X241.564 Y134.791
G1 F900 X196.994 Y90.221 E167.30608
G1 X196.906 Y90.133
G0 F2625 X196.287 Y90.221
G1 F900 X241.564 Y135.498 E169.43396
G1 X241.652 Y135.586
G0 F2625 X241.564 Y136.205
G1 F900 X195.58 Y90.221 E171.59508
G1 X195.492 Y90.133
G0 F2625 X194.872 Y90.221
G1 F900 X241.564 Y136.912 E173.78945
G1 X241.652 Y137
G0 F2625 X241.564 Y137.619
G1 F900 X194.165 Y90.221 E176.01704
G1 X194.077 Y90.133
G0 F2625 X193.458 Y90.221
G1 F900 X241.564 Y138.327 E178.27788
G1 X241.652 Y138.415
G0 F2625 X241.564 Y139.034
G1 F900 X192.751 Y90.221 E180.57195
G1 X192.663 Y90.133
G0 F2625 X192.044 Y90.221
G1 F900 X241.564 Y139.741 E182.89925
G1 X241.652 Y139.829
G0 F2625 X241.564 Y140.448
G1 F900 X191.337 Y90.221 E185.25977
G1 X191.249 Y90.133
G0 F2625 X190.63 Y90.221
G1 F900 X241.564 Y141.155 E187.65353
G1 X241.652 Y141.243
G0 F2625 X241.564 Y141.862
G1 F900 X189.923 Y90.221 E190.0805
G1 X189.835 Y90.133
G0 F2625 X189.216 Y90.221
G1 F900 X241.564 Y142.569 E192.54071
G1 X241.652 Y142.657
G0 F2625 X241.564 Y143.276
G1 F900 X188.509 Y90.221 E195.03414
G1 X188.421 Y90.133
G0 F2625 X187.801 Y90.221
G1 F900 X241.564 Y143.983 E197.56082
G1 X241.652 Y144.071
G0 F2625 X241.564 Y144.691
G1 F900 X187.094 Y90.221 E200.12076
G1 X187.006 Y90.133
G0 F2625 X186.387 Y90.221
G1 F900 X241.564 Y145.398 E202.71392
G1 X241.652 Y145.486
G0 F2625 X241.564 Y146.105
G1 F900 X185.68 Y90.221 E205.34031
G1 X185.592 Y90.133
G0 F2625 X184.973 Y90.221
G1 F900 X241.564 Y146.812 E207.99992
G1 X241.652 Y146.9
G0 F2625 X241.564 Y147.519
G1 F900 X184.266 Y90.221 E210.69276
G1 X184.178 Y90.133
G0 F2625 X183.559 Y90.221
G1 F900 X241.564 Y148.226 E213.41883
G1 X241.652 Y148.314
G0 F2625 X241.564 Y148.933
G1 F900 X182.852 Y90.221 E216.17812
G1 X182.764 Y90.133
G0 F2625 X182.145 Y90.221
G1 F900 X241.564 Y149.64 E218.97065
G1 X241.652 Y149.728
G0 F2625 X241.564 Y150.347
G1 F900 X181.437 Y90.221 E221.79642
G1 X181.349 Y90.133
G0 F2625 X180.73 Y90.221
G1 F900 X241.564 Y151.054 E224.65542
G1 X241.652 Y151.142
G0 F2625 X241.564 Y151.762
G1 F900 X180.023 Y90.221 E227.54767
G1 X179.935 Y90.133
G0 F2625 X179.316 Y90.221
G1 F900 X241.564 Y152.469 E230.47314
G1 X241.652 Y152.557
G0 F2625 X241.564 Y153.176
G1 F900 X178.609 Y90.221 E233.43185
G1 X178.521 Y90.133
G0 F2625 X177.902 Y90.221
G1 F900 X241.564 Y153.883 E236.42378
G1 X241.652 Y153.971
G0 F2625 X241.564 Y154.59
G1 F900 X177.195 Y90.221 E239.44894
G1 X177.107 Y90.133
G0 F2625 X176.488 Y90.221
G1 F900 X241.564 Y155.297 E242.50732
G1 X241.652 Y155.385
G0 F2625 X241.564 Y156.004
G1 F900 X175.781 Y90.221 E245.59893
G1 X175.693 Y90.133
G0 F2625 X175.073 Y90.221
G1 F900 X241.564 Y156.711 E248.72379
G1 X241.652 Y156.799
G0 F2625 X241.564 Y157.418
G1 F900 X174.366 Y90.221 E251.88188
G1 X174.278 Y90.133
G0 F2625 X173.659 Y90.221
G1 F900 X241.564 Y158.126 E255.07322
G1 X241.652 Y158.214
G0 F2625 X241.564 Y158.833
G1 F900 X172.952 Y90.221 E258.29779
G1 X172.864 Y90.133
G0 F2625 X172.245 Y90.221
G1 F900 X241.564 Y159.54 E261.55558
G1 X241.652 Y159.628
G0 F2625 X241.564 Y160.247
G1 F900 X171.538 Y90.221 E264.8466
G1 X171.45 Y90.133
G0 F2625 X170.831 Y90.221
G1 F900 X241.564 Y160.954 E268.17085
G1 X241.652 Y161.042
G0 F2625 X241.564 Y161.661
G1 F900 X170.124 Y90.221 E271.52833
G1 X170.036 Y90.133
G0 F2625 X169.417 Y90.221
G1 F900 X241.564 Y162.368 E274.91903
G1 X241.652 Y162.456
G0 F2625 X241.564 Y163.075
G1 F900 X168.71 Y90.221 E278.34295
G1 X168.622 Y90.133
G0 F2625 X168.002 Y90.221
G1 F900 X241.564 Y163.782 E281.80013
G1 X241.652 Y163.87
G0 F2625 X241.564 Y164.49
G1 F900 X167.295 Y90.221 E285.29056
G1 X167.207 Y90.133
G0 F2625 X166.588 Y90.221
G1 F900 X241.564 Y165.197 E288.81422
G1 X241.652 Y165.285
G0 F2625 X241.564 Y165.904
G1 F900 X165.881 Y90.221 E292.3711
G1 X165.793 Y90.133
G0 F2625 X165.174 Y90.221
G1 F900 X241.564 Y166.611 E295.96121
G1 X241.652 Y166.699
G0 F2625 X241.564 Y167.318
G1 F900 X164.467 Y90.221 E299.58455
G1 X164.379 Y90.133
G0 F2625 X163.76 Y90.221
G1 F900 X241.564 Y168.025 E303.24111
G1 X241.652 Y168.113
G0 F2625 X241.564 Y168.732
G1 F900 X163.053 Y90.221 E306.9309
G1 X162.965 Y90.133
