;Generated by Cura LulzBot Edition GCodeWriter Version: 3.2.32
;FLAVOR:Marlin
;TIME:10085
;Filament used: 6.05251m
;Layer height: 0.22
;Generated with Cura_SteamEngine 3.2.32
M82 ;absolute extrusion mode
;This G-Code has been generated specifically for the LulzBot TAZ 5 with standard extruder
M75			 ; start GLCD timer
M140 S110    ; start bed heating up
G21                      ; set units to Millimetres
G90                      ; absolute positioning
M107                     ; disable fans
M82                      ; set extruder to absolute mode
G28 X0 Y0                ; home X and Y
G28 Z0                   ; home Z
G1 Z15.0 F175 ; move extruder up
M117 Heating...                     ; progress indicator message on LCD
M109 R240  ; wait for extruder to reach printing temp
M190 S110    ; wait for bed to reach printing temp
G92 E0                   ; set extruder position to 0
G1 F200 E0               ; prime the nozzle with filament
G92 E0                   ; re-set extruder position to 0
G1 F175       ; set travel speed
M203 X192 Y208 Z3        ; set limits on travel speed
M117 TAZ 5 Printing...   ; progress indicator message on LCD

M221 S100
;LAYER_COUNT:11
;LAYER:0
M107
G0 F2625 X95.409 Y38.009 Z0.424
;TYPE:SKIRT
G1 F900 X95.64 Y37.555 E0.01693
G1 X95.94 Y37.143 E0.03386
G1 X96.3 Y36.783 E0.05078
G1 X96.712 Y36.483 E0.06772
G1 X97.166 Y36.252 E0.08465
G1 X97.651 Y36.094 E0.1016
G1 X98.154 Y36.014 E0.11853
G1 X98.411 Y36.004 E0.12707
G1 X160.846 Y36.005 E2.20191
G1 X161.354 Y36.045 E2.21885
G1 X161.849 Y36.164 E2.23576
G1 X162.32 Y36.359 E2.2527
G1 X162.755 Y36.625 E2.26965
G1 X163.142 Y36.955 E2.28655
G1 X163.474 Y37.342 E2.3035
G1 X163.619 Y37.56 E2.3122
G1 X165.573 Y40.757 E2.43671
G1 X168.649 Y45.304 E2.61915
G1 X171.971 Y49.663 E2.80128
G1 X175.515 Y53.804 E2.98241
G1 X179.323 Y57.774 E3.16522
G1 X183.331 Y61.507 E3.34723
G1 X185.386 Y63.263 E3.43706
G1 X189.701 Y66.646 E3.61928
G1 X194.201 Y69.78 E3.80151
G1 X198.858 Y72.646 E3.98323
G1 X203.672 Y75.246 E4.16505
G1 X208.626 Y77.57 E4.3469
G1 X213.737 Y79.625 E4.52996
G1 X216.253 Y80.513 E4.61863
G1 X221.522 Y82.126 E4.80175
G1 X226.845 Y83.432 E4.98389
G1 X229.551 Y83.977 E5.07562
G1 X232.165 Y84.424 E5.16375
G1 X237.639 Y85.126 E5.34715
G1 X243.25 Y85.523 E5.53408
G1 X243.754 Y85.599 E5.55102
G1 X244.24 Y85.752 E5.56796
G1 X244.696 Y85.98 E5.5849
G1 X245.111 Y86.276 E5.60184
G1 X245.474 Y86.633 E5.61876
G1 X245.777 Y87.043 E5.6357
G1 X246.012 Y87.495 E5.65263
G1 X246.174 Y87.978 E5.66956
G1 X246.258 Y88.48 E5.68647
G1 X246.271 Y88.765 E5.69595
G1 X246.272 Y185.746 E8.91882
G1 X246.232 Y186.254 E8.93576
G1 X246.113 Y186.749 E8.95268
G1 X245.918 Y187.22 E8.96962
G1 X245.652 Y187.655 E8.98656
G1 X245.322 Y188.042 E9.00346
G1 X244.935 Y188.374 E9.02041
G1 X244.5 Y188.64 E9.03735
G1 X244.03 Y188.836 E9.05428
G1 X243.535 Y188.955 E9.07119
G1 X243.253 Y188.988 E9.08063
G1 X240.362 Y189.194 E9.17695
G1 X234.906 Y189.821 E9.35945
G1 X229.483 Y190.757 E9.54234
G1 X226.875 Y191.32 E9.631
G1 X221.55 Y192.714 E9.81392
G1 X216.325 Y194.401 E9.99639
G1 X211.236 Y196.369 E10.17771
G1 X206.246 Y198.63 E10.35977
G1 X201.397 Y201.166 E10.54162
G1 X196.705 Y203.971 E10.72328
G1 X192.163 Y207.048 E10.9056
G1 X187.814 Y210.365 E11.08736
G1 X183.666 Y213.919 E11.26888
G1 X179.709 Y217.716 E11.45113
G1 X177.831 Y219.677 E11.54136
G1 X174.219 Y223.788 E11.72322
G1 X170.834 Y228.11 E11.90566
G1 X167.707 Y232.603 E12.08757
G1 X164.731 Y237.447 E12.2765
G1 X164.431 Y237.859 E12.29344
G1 X164.07 Y238.219 E12.31038
G1 X163.658 Y238.518 E12.3273
G1 X163.204 Y238.749 E12.34422
G1 X162.719 Y238.907 E12.36117
G1 X161.962 Y238.996 E12.3865
G1 X98.41 Y238.995 E14.49846
G1 X97.902 Y238.955 E14.5154
G1 X97.407 Y238.836 E14.53232
G1 X96.936 Y238.641 E14.54926
G1 X96.501 Y238.375 E14.5662
G1 X96.114 Y238.045 E14.5831
G1 X95.782 Y237.658 E14.60005
G1 X95.516 Y237.223 E14.61699
G1 X95.32 Y236.753 E14.63391
G1 X95.225 Y236.391 E14.64635
G1 X94.958 Y235.074 E14.69101
G1 X94.155 Y231.432 E14.81495
G1 X93.478 Y228.78 E14.9059
G1 X91.893 Y223.527 E15.08825
G1 X90.024 Y218.401 E15.26956
G1 X87.854 Y213.353 E15.45216
G1 X85.419 Y208.473 E15.6334
G1 X82.697 Y203.709 E15.81574
G1 X79.713 Y199.114 E15.99781
G1 X76.491 Y194.717 E16.17896
G1 X73.008 Y190.488 E16.36103
G1 X69.285 Y186.455 E16.54343
G1 X65.366 Y182.665 E16.72461
G1 X61.212 Y179.079 E16.90698
G1 X56.88 Y175.748 E17.08857
G1 X52.366 Y172.667 E17.27019
G1 X47.642 Y169.82 E17.45349
G1 X45.412 Y168.593 E17.53807
G1 X44.986 Y168.313 E17.55501
G1 X44.609 Y167.97 E17.57195
G1 X44.291 Y167.573 E17.58886
G1 X44.038 Y167.13 E17.60581
G1 X43.858 Y166.654 E17.62272
G1 X43.755 Y166.155 E17.63965
G1 X43.729 Y165.746 E17.65327
G1 X43.73 Y107.761 E19.58023
G1 X43.77 Y107.253 E19.59716
G1 X43.889 Y106.758 E19.61408
G1 X44.084 Y106.287 E19.63102
G1 X44.35 Y105.852 E19.64797
G1 X44.68 Y105.465 E19.66487
G1 X45.067 Y105.133 E19.68181
G1 X45.43 Y104.904 E19.69608
G1 X47.613 Y103.719 E19.77862
G1 X52.34 Y100.899 E19.96154
G1 X56.877 Y97.83 E20.14357
G1 X61.209 Y94.53 E20.32454
G1 X65.374 Y90.964 E20.50675
G1 X69.347 Y87.156 E20.68964
G1 X71.203 Y85.22 E20.77876
G1 X74.836 Y81.091 E20.96153
G1 X78.21 Y76.787 E21.14327
G1 X81.349 Y72.282 E21.32574
G1 X84.205 Y67.643 E21.50678
G1 X86.812 Y62.817 E21.68906
G1 X89.152 Y57.83 E21.87212
G1 X90.169 Y55.404 E21.95954
G1 X90.17 Y55.401 E21.95965
G1 X92.093 Y50.196 E22.14405
G1 X93.687 Y44.991 E22.32495
G1 X95.251 Y38.494 E22.54702
G1 X95.409 Y38.009 E22.56397
G1 F600 E21.56397
G0 F2625 X97.736 Y40.009
G0 X99.165 Y40.009
G0 X115.217 Y57.843
G0 X115.279 Y57.921
;TYPE:WALL-INNER
G1 F600 E22.56397
G1 F900 X114.401 Y58.66 E22.60211
G1 X113.56 Y59.439 E22.64021
G1 X112.76 Y60.26 E22.6783
G1 X112.001 Y61.12 E22.71642
G1 X111.286 Y62.017 E22.75454
G1 X110.616 Y62.947 E22.79263
G1 X109.994 Y63.911 E22.83076
G1 X109.421 Y64.904 E22.86886
G1 X108.897 Y65.924 E22.90696
G1 X108.426 Y66.971 E22.94512
G1 X108.007 Y68.038 E22.98321
G1 X107.642 Y69.125 E23.02132
G1 X107.331 Y70.228 E23.0594
G1 X107.076 Y71.346 E23.09751
G1 X106.877 Y72.477 E23.13567
G1 X106.734 Y73.614 E23.17375
G1 X106.648 Y74.757 E23.21184
G1 X106.62 Y75.904 E23.24997
G1 X106.648 Y77.051 E23.2881
G1 X106.734 Y78.195 E23.32623
G1 X106.877 Y79.332 E23.36431
G1 X107.076 Y80.461 E23.40241
G1 X107.331 Y81.58 E23.44055
G1 X107.642 Y82.684 E23.47866
G1 X108.007 Y83.77 E23.51674
G1 X108.426 Y84.838 E23.55486
G1 X108.897 Y85.884 E23.59298
G1 X109.421 Y86.904 E23.63109
G1 X109.994 Y87.897 E23.66919
G1 X110.616 Y88.861 E23.70732
G1 X111.286 Y89.792 E23.74543
G1 X112.001 Y90.689 E23.78355
G1 X112.76 Y91.548 E23.82165
G1 X113.56 Y92.369 E23.85974
G1 X114.401 Y93.149 E23.89786
G1 X115.279 Y93.887 E23.93598
G1 X116.194 Y94.579 E23.9741
G1 X117.141 Y95.225 E24.01219
G1 X118.12 Y95.823 E24.05032
G1 X119.127 Y96.372 E24.08843
G1 X120.16 Y96.869 E24.12653
G1 X121.217 Y97.315 E24.16465
G1 X122.295 Y97.707 E24.20277
G1 X123.391 Y98.045 E24.24089
G1 X124.502 Y98.328 E24.27899
G1 X125.625 Y98.555 E24.31706
G1 X126.76 Y98.726 E24.35521
G1 X127.901 Y98.84 E24.39331
G1 X129.047 Y98.897 E24.43144
G1 X130.193 Y98.897 E24.46953
G1 X131.339 Y98.84 E24.50766
G1 X132.48 Y98.726 E24.54576
G1 X133.615 Y98.555 E24.58391
G1 X134.738 Y98.328 E24.62198
G1 X135.849 Y98.045 E24.66008
G1 X136.945 Y97.707 E24.6982
G1 X138.023 Y97.315 E24.73632
G1 X139.08 Y96.869 E24.77444
G1 X140.113 Y96.372 E24.81254
G1 X141.12 Y95.823 E24.85065
G1 X142.099 Y95.225 E24.88877
G1 X143.046 Y94.579 E24.92687
G1 X143.961 Y93.887 E24.96499
G1 X144.839 Y93.149 E25.00311
G1 X145.68 Y92.369 E25.04123
G1 X146.48 Y91.548 E25.07932
G1 X147.239 Y90.689 E25.11742
G1 X147.954 Y89.792 E25.15554
G1 X148.624 Y88.861 E25.19365
G1 X149.246 Y87.897 E25.23178
G1 X149.819 Y86.904 E25.26988
G1 X150.343 Y85.884 E25.30799
G1 X150.814 Y84.838 E25.34611
G1 X151.233 Y83.771 E25.3842
G1 X151.599 Y82.684 E25.42232
G1 X151.909 Y81.58 E25.46043
G1 X152.164 Y80.461 E25.49857
G1 X152.363 Y79.332 E25.53666
G1 X152.506 Y78.195 E25.57475
G1 X152.592 Y77.051 E25.61287
G1 X152.62 Y75.904 E25.651
G1 X152.592 Y74.757 E25.68913
G1 X152.506 Y73.614 E25.72722
G1 X152.363 Y72.477 E25.7653
G1 X152.164 Y71.346 E25.80346
G1 X151.909 Y70.229 E25.84154
G1 X151.599 Y69.125 E25.87965
G1 X151.233 Y68.037 E25.91779
G1 X150.814 Y66.971 E25.95586
G1 X150.343 Y65.924 E25.99401
G1 X149.819 Y64.904 E26.03212
G1 X149.246 Y63.911 E26.07022
G1 X148.624 Y62.947 E26.10834
G1 X147.954 Y62.017 E26.14643
G1 X147.239 Y61.12 E26.18455
G1 X146.48 Y60.26 E26.22267
G1 X145.68 Y59.439 E26.26077
G1 X144.839 Y58.66 E26.29886
G1 X143.961 Y57.921 E26.337
G1 X143.046 Y57.23 E26.3751
G1 X142.1 Y56.584 E26.41317
G1 X141.12 Y55.985 E26.45134
G1 X140.113 Y55.437 E26.48944
G1 X139.08 Y54.939 E26.52755
G1 X138.023 Y54.493 E26.56567
G1 X136.945 Y54.102 E26.60378
G1 X135.85 Y53.764 E26.64186
G1 X134.738 Y53.48 E26.68
G1 X133.614 Y53.253 E26.71811
G1 X132.48 Y53.083 E26.75622
G1 X131.339 Y52.968 E26.79433
G1 X130.193 Y52.911 E26.83246
G1 X129.047 Y52.911 E26.87054
G1 X127.901 Y52.968 E26.90867
G1 X126.76 Y53.083 E26.94678
G1 X125.626 Y53.253 E26.98489
G1 X124.502 Y53.48 E27.023
G1 X123.39 Y53.764 E27.06114
G1 X122.295 Y54.102 E27.09922
G1 X121.217 Y54.493 E27.13733
G1 X120.16 Y54.939 E27.17545
G1 X119.127 Y55.437 E27.21356
G1 X118.12 Y55.985 E27.25166
G1 X117.14 Y56.584 E27.28983
G1 X116.194 Y57.23 E27.3279
G1 X115.279 Y57.921 E27.366
G0 F2625 X115.217 Y57.843
G0 X117.812 Y56.141
G0 X144.301 Y41.225
G0 X144.34 Y41.316
G1 F900 X143.934 Y41.531 E27.38127
G1 X143.565 Y41.807 E27.39658
G1 X143.244 Y42.141 E27.41198
G1 X142.982 Y42.522 E27.42734
G1 X142.785 Y42.938 E27.44264
G1 X142.656 Y43.381 E27.45797
G1 X142.6 Y43.841 E27.47337
G1 X142.618 Y44.302 E27.4887
G1 X142.711 Y44.754 E27.50404
G1 X142.874 Y45.186 E27.51938
G1 X143.106 Y45.586 E27.53475
G1 X143.397 Y45.943 E27.55006
G1 X143.743 Y46.25 E27.56543
G1 X144.133 Y46.496 E27.58075
G1 X144.559 Y46.678 E27.59615
G1 X145.006 Y46.788 E27.61144
G1 X145.467 Y46.826 E27.62682
G1 X145.928 Y46.788 E27.64219
G1 X146.375 Y46.678 E27.65749
G1 X146.801 Y46.496 E27.67288
G1 X147.191 Y46.25 E27.6882
G1 X147.537 Y45.943 E27.70358
G1 X147.828 Y45.586 E27.71888
G1 X148.06 Y45.186 E27.73425
G1 X148.223 Y44.754 E27.74959
G1 X148.316 Y44.302 E27.76493
G1 X148.334 Y43.841 E27.78026
G1 X148.278 Y43.381 E27.79566
G1 X148.149 Y42.938 E27.81099
G1 X147.952 Y42.522 E27.82629
G1 X147.69 Y42.141 E27.84165
G1 X147.369 Y41.807 E27.85705
G1 X147 Y41.531 E27.87236
G1 X146.594 Y41.316 E27.88763
G1 X146.153 Y41.169 E27.90308
G1 X145.697 Y41.096 E27.91842
G1 X145.237 Y41.096 E27.93371
G1 X144.781 Y41.169 E27.94906
G1 X144.34 Y41.316 E27.96451
G0 F2625 X144.301 Y41.225
G0 X143.539 Y41.778
G0 X142.948 Y42.503
G0 X142.617 Y43.373
G0 X142.579 Y44.306
G0 X142.725 Y44.814
G0 X160.032 Y89.575
G0 X160.102 Y89.505
G1 F900 X242.28 Y89.505 E30.69544
G1 X242.28 Y185.005 E33.8691
G1 X161.22 Y185.005 E36.56288
G1 X161.22 Y235.005 E38.22448
G1 X99.151 Y235.005 E40.28716
G1 X99.151 Y165.005 E42.6134
G1 X47.72 Y165.005 E44.32255
G1 X47.72 Y108.505 E46.20016
G1 X99.151 Y108.505 E47.90931
G1 X99.151 Y39.995 E50.18604
G1 X160.102 Y39.995 E52.21156
G1 X160.102 Y89.505 E53.85687
G0 F2625 X160.032 Y89.575
G0 X236.229 Y138.615
G0 X236.295 Y138.689
G1 F900 X235.976 Y139.022 E53.8722
G1 X235.713 Y139.402 E53.88756
G1 X235.515 Y139.82 E53.90293
G1 X235.386 Y140.263 E53.91826
G1 X235.33 Y140.723 E53.93366
G1 X235.349 Y141.184 E53.94899
G1 X235.441 Y141.636 E53.96432
G1 X235.605 Y142.068 E53.97968
G1 X235.836 Y142.468 E53.99503
G1 X236.128 Y142.825 E54.01035
G1 X236.474 Y143.132 E54.02573
G1 X236.864 Y143.378 E54.04105
G1 X237.289 Y143.56 E54.05641
G1 X237.737 Y143.67 E54.07174
G1 X238.197 Y143.708 E54.08708
G1 X238.658 Y143.67 E54.10245
G1 X239.106 Y143.56 E54.11778
G1 X239.531 Y143.378 E54.13315
G1 X239.921 Y143.132 E54.14847
G1 X240.267 Y142.825 E54.16384
G1 X240.559 Y142.468 E54.17917
G1 X240.79 Y142.068 E54.19452
G1 X240.954 Y141.636 E54.20988
G1 X241.046 Y141.184 E54.22521
G1 X241.065 Y140.723 E54.24054
G1 X241.009 Y140.263 E54.25594
G1 X240.88 Y139.82 E54.27127
G1 X240.682 Y139.402 E54.28664
G1 X240.419 Y139.022 E54.302
G1 X240.1 Y138.689 E54.31732
G1 X239.731 Y138.413 E54.33264
G1 X239.323 Y138.198 E54.34796
G1 X238.883 Y138.051 E54.36338
G1 X238.428 Y137.978 E54.37869
G1 X237.967 Y137.978 E54.39401
G1 X237.512 Y138.051 E54.40933
G1 X237.072 Y138.198 E54.42474
G1 X236.664 Y138.413 E54.44007
G1 X236.295 Y138.689 E54.45538
G0 F2625 X236.229 Y138.615
G0 X161.192 Y184.977
G0 X142.311 Y229.615
G0 X142.404 Y229.65
G1 F900 X142.277 Y230.094 E54.47073
G1 X142.22 Y230.552 E54.48607
G1 X142.239 Y231.013 E54.5014
G1 X142.331 Y231.465 E54.51673
G1 X142.495 Y231.897 E54.53209
G1 X142.726 Y232.298 E54.54746
G1 X143.018 Y232.655 E54.56279
G1 X143.364 Y232.962 E54.57816
G1 X143.756 Y233.208 E54.59354
G1 X144.179 Y233.389 E54.60883
G1 X144.627 Y233.5 E54.62417
G1 X145.088 Y233.537 E54.63954
G1 X145.548 Y233.5 E54.65488
G1 X145.996 Y233.389 E54.67021
G1 X146.421 Y233.208 E54.68557
G1 X146.811 Y232.962 E54.70089
G1 X147.158 Y232.655 E54.71629
G1 X147.45 Y232.296 E54.73166
G1 X147.68 Y231.897 E54.74697
G1 X147.844 Y231.465 E54.76232
G1 X147.936 Y231.013 E54.77765
G1 X147.955 Y230.552 E54.79299
G1 X147.899 Y230.093 E54.80835
G1 X147.77 Y229.65 E54.82369
G1 X147.573 Y229.234 E54.83898
G1 X147.311 Y228.852 E54.85438
G1 X146.99 Y228.519 E54.86975
G1 X146.621 Y228.242 E54.88508
G1 X146.212 Y228.027 E54.90044
G1 X145.774 Y227.882 E54.91577
G1 X145.319 Y227.807 E54.93109
G1 X144.856 Y227.807 E54.94648
G1 X144.401 Y227.882 E54.9618
G1 X143.964 Y228.027 E54.9771
G1 X143.554 Y228.242 E54.99249
G1 X143.185 Y228.52 E55.00784
G1 X142.865 Y228.852 E55.02317
G1 X142.603 Y229.233 E55.03853
G1 X142.404 Y229.65 E55.05389
G0 F2625 X142.311 Y229.615
G0 X121.203 Y221.858
G0 X119.109 Y220.913
G0 X117.12 Y219.763
G0 X115.255 Y218.424
G0 X113.533 Y216.903
G0 X111.971 Y215.22
G0 X110.583 Y213.389
G0 X109.386 Y211.429
G0 X108.39 Y209.359
G0 X107.604 Y207.2
G0 X107.037 Y204.975
G0 X106.695 Y202.703
G0 X106.58 Y200.41
G0 X106.695 Y198.117
G0 X107.037 Y195.845
G0 X107.604 Y193.62
G0 X108.807 Y190.387
G0 X108.897 Y190.43
G1 F900 X108.426 Y191.476 E55.09201
G1 X108.007 Y192.544 E55.13013
G1 X107.642 Y193.631 E55.16824
G1 X107.331 Y194.734 E55.20632
G1 X107.076 Y195.852 E55.24443
G1 X106.877 Y196.983 E55.28259
G1 X106.734 Y198.12 E55.32068
G1 X106.648 Y199.263 E55.35877
G1 X106.62 Y200.41 E55.3969
G1 X106.648 Y201.557 E55.43503
G1 X106.734 Y202.7 E55.47312
G1 X106.877 Y203.837 E55.5112
G1 X107.076 Y204.968 E55.54936
G1 X107.331 Y206.086 E55.58747
G1 X107.642 Y207.189 E55.62555
G1 X108.007 Y208.276 E55.66366
G1 X108.426 Y209.344 E55.70178
G1 X108.897 Y210.39 E55.73991
G1 X109.421 Y211.41 E55.77801
G1 X109.994 Y212.403 E55.81611
G1 X110.616 Y213.367 E55.85424
G1 X111.286 Y214.298 E55.89236
G1 X112.001 Y215.195 E55.93048
G1 X112.76 Y216.054 E55.96857
G1 X113.56 Y216.875 E56.00666
G1 X114.401 Y217.655 E56.04478
G1 X115.279 Y218.393 E56.0829
G1 X116.194 Y219.085 E56.12102
G1 X117.141 Y219.73 E56.1591
G1 X118.12 Y220.329 E56.19724
G1 X119.127 Y220.878 E56.23536
G1 X120.16 Y221.375 E56.27345
G1 X121.217 Y221.821 E56.31158
G1 X122.295 Y222.212 E56.34968
G1 X123.39 Y222.55 E56.38777
G1 X124.502 Y222.834 E56.42591
G1 X125.626 Y223.061 E56.46401
G1 X126.76 Y223.231 E56.50212
G1 X127.901 Y223.346 E56.54023
G1 X129.047 Y223.403 E56.57836
G1 X130.193 Y223.403 E56.61644
G1 X131.339 Y223.346 E56.65457
G1 X132.48 Y223.231 E56.69268
G1 X133.614 Y223.061 E56.73079
G1 X134.738 Y222.834 E56.7689
G1 X135.85 Y222.55 E56.80704
G1 X136.945 Y222.212 E56.84512
G1 X138.023 Y221.821 E56.88323
G1 X139.08 Y221.375 E56.92135
G1 X140.113 Y220.878 E56.95945
G1 X141.12 Y220.329 E56.99756
G1 X142.099 Y219.73 E57.0357
G1 X143.046 Y219.085 E57.07378
G1 X143.961 Y218.393 E57.11191
G1 X144.839 Y217.655 E57.15002
G1 X145.68 Y216.875 E57.18814
G1 X146.48 Y216.054 E57.22623
G1 X147.239 Y215.195 E57.26433
G1 X147.954 Y214.298 E57.30245
G1 X148.624 Y213.367 E57.34057
G1 X149.246 Y212.403 E57.37869
G1 X149.819 Y211.41 E57.41679
G1 X150.343 Y210.39 E57.4549
G1 X150.814 Y209.344 E57.49302
